( pcb2gcode 1.1.4 )

( This file uses 1 drill bit sizes. )

G94     ( Inches per minute feed rate. )
G21     ( Units == MM.             )
G90     ( Absolute coordinates.        )
S20000  ( RPM spindle speed.           )

G00 Z15.00000 ( Retract )
T1
M5      ( Spindle stop.                )
M6      ( Tool change.                 )
(MSG, CHANGE TOOL BIT: to drill size 0.04000 inch)
M0      ( Temporary machine stop.      )
M3      ( Spindle on clockwise.        )

G0 X2.10820 Y2.31140
G1 Z-2.00000 F300.00000
G0 Z12.00000
G0 X4.64820 Y2.31140
G1 Z-2.00000 F300.00000
G0 Z12.00000
G0 X7.18820 Y2.31140
G1 Z-2.00000 F300.00000
G0 Z12.00000
G0 X9.72820 Y2.31140
G1 Z-2.00000 F300.00000
G0 Z12.00000
G0 X12.26820 Y2.31140
G1 Z-2.00000 F300.00000
G0 Z12.00000
G0 X14.80820 Y2.31140
G1 Z-2.00000 F300.00000
G0 Z12.00000
G0 X17.34820 Y2.31140
G1 Z-2.00000 F300.00000
G0 Z12.00000
G0 X19.88820 Y2.31140
G1 Z-2.00000 F300.00000
G0 Z12.00000
G0 X22.42820 Y2.31140
G1 Z-2.00000 F300.00000
G0 Z12.00000
G0 X24.96820 Y2.31140
G1 Z-2.00000 F300.00000
G0 Z12.00000
G0 X24.96820 Y22.63140
G1 Z-2.00000 F300.00000
G0 Z12.00000
G0 X22.42820 Y22.63140
G1 Z-2.00000 F300.00000
G0 Z12.00000
G0 X19.88820 Y22.63140
G1 Z-2.00000 F300.00000
G0 Z12.00000
G0 X17.34820 Y22.63140
G1 Z-2.00000 F300.00000
G0 Z12.00000
G0 X14.80820 Y22.63140
G1 Z-2.00000 F300.00000
G0 Z12.00000
G0 X12.26820 Y22.63140
G1 Z-2.00000 F300.00000
G0 Z12.00000
G0 X9.72820 Y22.63140
G1 Z-2.00000 F300.00000
G0 Z12.00000
G0 X7.18820 Y22.63140
G1 Z-2.00000 F300.00000
G0 Z12.00000
G0 X4.64820 Y22.63140
G1 Z-2.00000 F300.00000
G0 Z12.00000
G0 X2.10820 Y22.63140
G1 Z-2.00000 F300.00000
G0 Z12.00000


G00 Z15.00000 ( All done -- retract )

M9 ( Coolant off. )
M2 ( Program end. )

