( pcb2gcode 1.1.4 )

       G21     ( Units == MM.                 )
G90     ( Absolute coordinates.        )
S30000  ( RPM spindle speed.           )
M3      ( Spindle on clockwise.        )

G64 P0.00500 ( set maximum deviation from commanded toolpath )

G04 P0 ( dwell for no time -- G64 should not smooth over this point )
G00 Z12.00000 ( retract )

G00 X3.35280 Y24.20620 ( rapid move to begin. )
G01 Z10.00000 F30.00000 ( plunge. )
G04 P0 ( dwell for no time -- G64 should not smooth over this point )
G01 X3.35280 Y24.20620 F30.00000
G01 X3.35280 Y18.59280 F30.00000
G01 X3.37820 Y18.59280 F30.00000
G01 X3.37820 Y18.56740 F30.00000
G01 X3.40360 Y18.56740 F30.00000
G01 X3.40360 Y18.54200 F30.00000
G01 X3.42900 Y18.54200 F30.00000
G01 X3.42900 Y18.51660 F30.00000
G01 X3.45440 Y18.51660 F30.00000
G01 X3.45440 Y18.49120 F30.00000
G01 X3.47980 Y18.49120 F30.00000
G01 X3.47980 Y18.46580 F30.00000
G01 X3.50520 Y18.46580 F30.00000
G01 X3.50520 Y18.44040 F30.00000
G01 X3.53060 Y18.44040 F30.00000
G01 X3.53060 Y18.41500 F30.00000
G01 X3.55600 Y18.41500 F30.00000
G01 X3.55600 Y18.38960 F30.00000
G01 X3.58140 Y18.38960 F30.00000
G01 X3.58140 Y18.36420 F30.00000
G01 X3.60680 Y18.36420 F30.00000
G01 X3.60680 Y18.33880 F30.00000
G01 X3.63220 Y18.33880 F30.00000
G01 X3.63220 Y18.31340 F30.00000
G01 X3.65760 Y18.31340 F30.00000
G01 X3.65760 Y18.28800 F30.00000
G01 X3.68300 Y18.28800 F30.00000
G01 X3.68300 Y18.26260 F30.00000
G01 X3.70840 Y18.26260 F30.00000
G01 X3.70840 Y18.23720 F30.00000
G01 X3.73380 Y18.23720 F30.00000
G01 X3.73380 Y18.21180 F30.00000
G01 X3.75920 Y18.21180 F30.00000
G01 X3.75920 Y18.18640 F30.00000
G01 X3.81000 Y18.18640 F30.00000
G01 X3.81000 Y18.16100 F30.00000
G01 X3.86080 Y18.16100 F30.00000
G01 X3.86080 Y18.13560 F30.00000
G01 X3.98780 Y18.13560 F30.00000
G01 X3.98780 Y18.11020 F30.00000
G01 X6.90880 Y18.11020 F30.00000
G01 X6.90880 Y18.13560 F30.00000
G01 X6.93420 Y18.13560 F30.00000
G01 X6.93420 Y18.16100 F30.00000
G01 X6.95960 Y18.16100 F30.00000
G01 X6.95960 Y18.18640 F30.00000
G01 X6.98500 Y18.18640 F30.00000
G01 X6.98500 Y18.21180 F30.00000
G01 X7.01040 Y18.21180 F30.00000
G01 X7.01040 Y18.23720 F30.00000
G01 X7.03580 Y18.23720 F30.00000
G01 X7.03580 Y18.26260 F30.00000
G01 X7.06120 Y18.26260 F30.00000
G01 X7.06120 Y18.28800 F30.00000
G01 X7.08660 Y18.28800 F30.00000
G01 X7.08660 Y18.31340 F30.00000
G01 X7.11200 Y18.31340 F30.00000
G01 X7.11200 Y18.33880 F30.00000
G01 X7.13740 Y18.33880 F30.00000
G01 X7.13740 Y18.36420 F30.00000
G01 X7.16280 Y18.36420 F30.00000
G01 X7.16280 Y18.38960 F30.00000
G01 X7.18820 Y18.38960 F30.00000
G01 X7.18820 Y18.41500 F30.00000
G01 X7.21360 Y18.41500 F30.00000
G01 X7.21360 Y18.44040 F30.00000
G01 X7.23900 Y18.44040 F30.00000
G01 X7.23900 Y18.46580 F30.00000
G01 X7.26440 Y18.46580 F30.00000
G01 X7.26440 Y18.49120 F30.00000
G01 X7.28980 Y18.49120 F30.00000
G01 X7.28980 Y18.51660 F30.00000
G01 X7.31520 Y18.51660 F30.00000
G01 X7.31520 Y18.54200 F30.00000
G01 X7.34060 Y18.54200 F30.00000
G01 X7.34060 Y18.56740 F30.00000
G01 X8.22960 Y18.56740 F30.00000
G01 X8.22960 Y18.54200 F30.00000
G01 X8.25500 Y18.54200 F30.00000
G01 X8.25500 Y18.51660 F30.00000
G01 X8.28040 Y18.51660 F30.00000
G01 X8.28040 Y18.49120 F30.00000
G01 X8.30580 Y18.49120 F30.00000
G01 X8.30580 Y18.46580 F30.00000
G01 X8.33120 Y18.46580 F30.00000
G01 X8.33120 Y18.44040 F30.00000
G01 X8.35660 Y18.44040 F30.00000
G01 X8.35660 Y18.41500 F30.00000
G01 X8.38200 Y18.41500 F30.00000
G01 X8.38200 Y18.38960 F30.00000
G01 X8.40740 Y18.38960 F30.00000
G01 X8.40740 Y18.36420 F30.00000
G01 X8.43280 Y18.36420 F30.00000
G01 X8.43280 Y12.54760 F30.00000
G01 X2.89560 Y12.54760 F30.00000
G01 X2.89560 Y12.52220 F30.00000
G01 X2.87020 Y12.52220 F30.00000
G01 X2.87020 Y12.49680 F30.00000
G01 X2.84480 Y12.49680 F30.00000
G01 X2.84480 Y12.47140 F30.00000
G01 X2.81940 Y12.47140 F30.00000
G01 X2.81940 Y12.44600 F30.00000
G01 X2.79400 Y12.44600 F30.00000
G01 X2.79400 Y12.42060 F30.00000
G01 X2.76860 Y12.42060 F30.00000
G01 X2.76860 Y12.39520 F30.00000
G01 X1.06680 Y12.39520 F30.00000
G01 X1.06680 Y24.43480 F30.00000
G01 X3.35280 Y24.43480 F30.00000
G01 X3.35280 Y24.20620 F30.00000
G04 P0 ( dwell for no time -- G64 should not smooth over this point )
G00 Z12.00000 ( retract )

G00 X5.89280 Y24.20620 ( rapid move to begin. )
G01 Z10.00000 F30.00000 ( plunge. )
G04 P0 ( dwell for no time -- G64 should not smooth over this point )
G01 X5.89280 Y24.20620 F30.00000
G01 X5.89280 Y20.14220 F30.00000
G01 X5.91820 Y20.14220 F30.00000
G01 X5.91820 Y20.11680 F30.00000
G01 X5.94360 Y20.11680 F30.00000
G01 X5.94360 Y20.09140 F30.00000
G01 X5.96900 Y20.09140 F30.00000
G01 X5.96900 Y20.06600 F30.00000
G01 X5.99440 Y20.06600 F30.00000
G01 X5.99440 Y20.04060 F30.00000
G01 X6.01980 Y20.04060 F30.00000
G01 X6.01980 Y20.01520 F30.00000
G01 X6.04520 Y20.01520 F30.00000
G01 X6.04520 Y19.98980 F30.00000
G01 X6.07060 Y19.98980 F30.00000
G01 X6.07060 Y19.96440 F30.00000
G01 X6.09600 Y19.96440 F30.00000
G01 X6.09600 Y19.93900 F30.00000
G01 X6.12140 Y19.93900 F30.00000
G01 X6.12140 Y19.91360 F30.00000
G01 X6.14680 Y19.91360 F30.00000
G01 X6.14680 Y19.88820 F30.00000
G01 X6.17220 Y19.88820 F30.00000
G01 X6.17220 Y19.86280 F30.00000
G01 X6.19760 Y19.86280 F30.00000
G01 X6.19760 Y19.83740 F30.00000
G01 X6.22300 Y19.83740 F30.00000
G01 X6.22300 Y19.81200 F30.00000
G01 X6.24840 Y19.81200 F30.00000
G01 X6.24840 Y19.78660 F30.00000
G01 X6.27380 Y19.78660 F30.00000
G01 X6.27380 Y19.76120 F30.00000
G01 X6.29920 Y19.76120 F30.00000
G01 X6.29920 Y19.73580 F30.00000
G01 X6.32460 Y19.73580 F30.00000
G01 X6.32460 Y19.71040 F30.00000
G01 X6.35000 Y19.71040 F30.00000
G01 X6.35000 Y19.68500 F30.00000
G01 X6.37540 Y19.68500 F30.00000
G01 X6.37540 Y19.65960 F30.00000
G01 X6.40080 Y19.65960 F30.00000
G01 X6.40080 Y19.63420 F30.00000
G01 X6.42620 Y19.63420 F30.00000
G01 X6.42620 Y19.60880 F30.00000
G01 X6.47700 Y19.60880 F30.00000
G01 X6.47700 Y19.58340 F30.00000
G01 X6.52780 Y19.58340 F30.00000
G01 X6.52780 Y19.55800 F30.00000
G01 X6.60400 Y19.55800 F30.00000
G01 X6.60400 Y19.53260 F30.00000
G01 X9.55040 Y19.53260 F30.00000
G01 X9.55040 Y19.50720 F30.00000
G01 X9.67740 Y19.50720 F30.00000
G01 X9.67740 Y19.38020 F30.00000
G01 X9.70280 Y19.38020 F30.00000
G01 X9.70280 Y12.54760 F30.00000
G01 X8.43280 Y12.54760 F30.00000
G01 X8.43280 Y18.36420 F30.00000
G01 X8.40740 Y18.36420 F30.00000
G01 X8.40740 Y18.38960 F30.00000
G01 X8.38200 Y18.38960 F30.00000
G01 X8.38200 Y18.41500 F30.00000
G01 X8.35660 Y18.41500 F30.00000
G01 X8.35660 Y18.44040 F30.00000
G01 X8.33120 Y18.44040 F30.00000
G01 X8.33120 Y18.46580 F30.00000
G01 X8.30580 Y18.46580 F30.00000
G01 X8.30580 Y18.49120 F30.00000
G01 X8.28040 Y18.49120 F30.00000
G01 X8.28040 Y18.51660 F30.00000
G01 X8.25500 Y18.51660 F30.00000
G01 X8.25500 Y18.54200 F30.00000
G01 X8.22960 Y18.54200 F30.00000
G01 X8.22960 Y18.56740 F30.00000
G01 X7.34060 Y18.56740 F30.00000
G01 X7.34060 Y18.54200 F30.00000
G01 X7.31520 Y18.54200 F30.00000
G01 X7.31520 Y18.51660 F30.00000
G01 X7.28980 Y18.51660 F30.00000
G01 X7.28980 Y18.49120 F30.00000
G01 X7.26440 Y18.49120 F30.00000
G01 X7.26440 Y18.46580 F30.00000
G01 X7.23900 Y18.46580 F30.00000
G01 X7.23900 Y18.44040 F30.00000
G01 X7.21360 Y18.44040 F30.00000
G01 X7.21360 Y18.41500 F30.00000
G01 X7.18820 Y18.41500 F30.00000
G01 X7.18820 Y18.38960 F30.00000
G01 X7.16280 Y18.38960 F30.00000
G01 X7.16280 Y18.36420 F30.00000
G01 X7.13740 Y18.36420 F30.00000
G01 X7.13740 Y18.33880 F30.00000
G01 X7.11200 Y18.33880 F30.00000
G01 X7.11200 Y18.31340 F30.00000
G01 X7.08660 Y18.31340 F30.00000
G01 X7.08660 Y18.28800 F30.00000
G01 X7.06120 Y18.28800 F30.00000
G01 X7.06120 Y18.26260 F30.00000
G01 X7.03580 Y18.26260 F30.00000
G01 X7.03580 Y18.23720 F30.00000
G01 X7.01040 Y18.23720 F30.00000
G01 X7.01040 Y18.21180 F30.00000
G01 X6.98500 Y18.21180 F30.00000
G01 X6.98500 Y18.18640 F30.00000
G01 X6.95960 Y18.18640 F30.00000
G01 X6.95960 Y18.16100 F30.00000
G01 X6.93420 Y18.16100 F30.00000
G01 X6.93420 Y18.13560 F30.00000
G01 X6.90880 Y18.13560 F30.00000
G01 X6.90880 Y18.11020 F30.00000
G01 X3.98780 Y18.11020 F30.00000
G01 X3.98780 Y18.13560 F30.00000
G01 X3.86080 Y18.13560 F30.00000
G01 X3.86080 Y18.16100 F30.00000
G01 X3.81000 Y18.16100 F30.00000
G01 X3.81000 Y18.18640 F30.00000
G01 X3.75920 Y18.18640 F30.00000
G01 X3.75920 Y18.21180 F30.00000
G01 X3.73380 Y18.21180 F30.00000
G01 X3.73380 Y18.23720 F30.00000
G01 X3.70840 Y18.23720 F30.00000
G01 X3.70840 Y18.26260 F30.00000
G01 X3.68300 Y18.26260 F30.00000
G01 X3.68300 Y18.28800 F30.00000
G01 X3.65760 Y18.28800 F30.00000
G01 X3.65760 Y18.31340 F30.00000
G01 X3.63220 Y18.31340 F30.00000
G01 X3.63220 Y18.33880 F30.00000
G01 X3.60680 Y18.33880 F30.00000
G01 X3.60680 Y18.36420 F30.00000
G01 X3.58140 Y18.36420 F30.00000
G01 X3.58140 Y18.38960 F30.00000
G01 X3.55600 Y18.38960 F30.00000
G01 X3.55600 Y18.41500 F30.00000
G01 X3.53060 Y18.41500 F30.00000
G01 X3.53060 Y18.44040 F30.00000
G01 X3.50520 Y18.44040 F30.00000
G01 X3.50520 Y18.46580 F30.00000
G01 X3.47980 Y18.46580 F30.00000
G01 X3.47980 Y18.49120 F30.00000
G01 X3.45440 Y18.49120 F30.00000
G01 X3.45440 Y18.51660 F30.00000
G01 X3.42900 Y18.51660 F30.00000
G01 X3.42900 Y18.54200 F30.00000
G01 X3.40360 Y18.54200 F30.00000
G01 X3.40360 Y18.56740 F30.00000
G01 X3.37820 Y18.56740 F30.00000
G01 X3.37820 Y18.59280 F30.00000
G01 X3.35280 Y18.59280 F30.00000
G01 X3.35280 Y24.43480 F30.00000
G01 X5.89280 Y24.43480 F30.00000
G01 X5.89280 Y24.20620 F30.00000
G04 P0 ( dwell for no time -- G64 should not smooth over this point )
G00 Z12.00000 ( retract )

G00 X8.43280 Y24.20620 ( rapid move to begin. )
G01 Z10.00000 F30.00000 ( plunge. )
G04 P0 ( dwell for no time -- G64 should not smooth over this point )
G01 X8.43280 Y24.20620 F30.00000
G01 X8.43280 Y20.95500 F30.00000
G01 X8.48360 Y20.95500 F30.00000
G01 X8.48360 Y20.92960 F30.00000
G01 X8.55980 Y20.92960 F30.00000
G01 X8.55980 Y20.90420 F30.00000
G01 X8.61060 Y20.90420 F30.00000
G01 X8.61060 Y20.87880 F30.00000
G01 X8.68680 Y20.87880 F30.00000
G01 X8.68680 Y20.85340 F30.00000
G01 X8.78840 Y20.85340 F30.00000
G01 X8.78840 Y20.82800 F30.00000
G01 X8.89000 Y20.82800 F30.00000
G01 X8.89000 Y20.80260 F30.00000
G01 X9.04240 Y20.80260 F30.00000
G01 X9.04240 Y20.77720 F30.00000
G01 X10.36320 Y20.77720 F30.00000
G01 X10.36320 Y20.75180 F30.00000
G01 X10.38860 Y20.75180 F30.00000
G01 X10.38860 Y20.72640 F30.00000
G01 X10.41400 Y20.72640 F30.00000
G01 X10.41400 Y20.70100 F30.00000
G01 X10.43940 Y20.70100 F30.00000
G01 X10.43940 Y20.67560 F30.00000
G01 X10.46480 Y20.67560 F30.00000
G01 X10.46480 Y20.65020 F30.00000
G01 X10.49020 Y20.65020 F30.00000
G01 X10.49020 Y20.62480 F30.00000
G01 X10.51560 Y20.62480 F30.00000
G01 X10.51560 Y20.59940 F30.00000
G01 X10.54100 Y20.59940 F30.00000
G01 X10.54100 Y20.57400 F30.00000
G01 X10.56640 Y20.57400 F30.00000
G01 X10.56640 Y20.52320 F30.00000
G01 X10.59180 Y20.52320 F30.00000
G01 X10.59180 Y20.47240 F30.00000
G01 X10.61720 Y20.47240 F30.00000
G01 X10.61720 Y20.39620 F30.00000
G01 X10.64260 Y20.39620 F30.00000
G01 X10.64260 Y19.98980 F30.00000
G01 X10.66800 Y19.98980 F30.00000
G01 X10.66800 Y19.86280 F30.00000
G01 X10.69340 Y19.86280 F30.00000
G01 X10.69340 Y19.81200 F30.00000
G01 X10.71880 Y19.81200 F30.00000
G01 X10.71880 Y19.76120 F30.00000
G01 X10.74420 Y19.76120 F30.00000
G01 X10.74420 Y19.73580 F30.00000
G01 X10.76960 Y19.73580 F30.00000
G01 X10.76960 Y19.71040 F30.00000
G01 X10.79500 Y19.71040 F30.00000
G01 X10.79500 Y19.68500 F30.00000
G01 X10.82040 Y19.68500 F30.00000
G01 X10.82040 Y19.65960 F30.00000
G01 X10.84580 Y19.65960 F30.00000
G01 X10.84580 Y19.63420 F30.00000
G01 X10.87120 Y19.63420 F30.00000
G01 X10.87120 Y19.60880 F30.00000
G01 X10.89660 Y19.60880 F30.00000
G01 X10.89660 Y19.58340 F30.00000
G01 X10.92200 Y19.58340 F30.00000
G01 X10.92200 Y19.55800 F30.00000
G01 X10.94740 Y19.55800 F30.00000
G01 X10.94740 Y19.53260 F30.00000
G01 X10.97280 Y19.53260 F30.00000
G01 X10.97280 Y12.54760 F30.00000
G01 X9.70280 Y12.54760 F30.00000
G01 X9.70280 Y19.38020 F30.00000
G01 X9.67740 Y19.38020 F30.00000
G01 X9.67740 Y19.50720 F30.00000
G01 X9.55040 Y19.50720 F30.00000
G01 X9.55040 Y19.53260 F30.00000
G01 X6.60400 Y19.53260 F30.00000
G01 X6.60400 Y19.55800 F30.00000
G01 X6.52780 Y19.55800 F30.00000
G01 X6.52780 Y19.58340 F30.00000
G01 X6.47700 Y19.58340 F30.00000
G01 X6.47700 Y19.60880 F30.00000
G01 X6.42620 Y19.60880 F30.00000
G01 X6.42620 Y19.63420 F30.00000
G01 X6.40080 Y19.63420 F30.00000
G01 X6.40080 Y19.65960 F30.00000
G01 X6.37540 Y19.65960 F30.00000
G01 X6.37540 Y19.68500 F30.00000
G01 X6.35000 Y19.68500 F30.00000
G01 X6.35000 Y19.71040 F30.00000
G01 X6.32460 Y19.71040 F30.00000
G01 X6.32460 Y19.73580 F30.00000
G01 X6.29920 Y19.73580 F30.00000
G01 X6.29920 Y19.76120 F30.00000
G01 X6.27380 Y19.76120 F30.00000
G01 X6.27380 Y19.78660 F30.00000
G01 X6.24840 Y19.78660 F30.00000
G01 X6.24840 Y19.81200 F30.00000
G01 X6.22300 Y19.81200 F30.00000
G01 X6.22300 Y19.83740 F30.00000
G01 X6.19760 Y19.83740 F30.00000
G01 X6.19760 Y19.86280 F30.00000
G01 X6.17220 Y19.86280 F30.00000
G01 X6.17220 Y19.88820 F30.00000
G01 X6.14680 Y19.88820 F30.00000
G01 X6.14680 Y19.91360 F30.00000
G01 X6.12140 Y19.91360 F30.00000
G01 X6.12140 Y19.93900 F30.00000
G01 X6.09600 Y19.93900 F30.00000
G01 X6.09600 Y19.96440 F30.00000
G01 X6.07060 Y19.96440 F30.00000
G01 X6.07060 Y19.98980 F30.00000
G01 X6.04520 Y19.98980 F30.00000
G01 X6.04520 Y20.01520 F30.00000
G01 X6.01980 Y20.01520 F30.00000
G01 X6.01980 Y20.04060 F30.00000
G01 X5.99440 Y20.04060 F30.00000
G01 X5.99440 Y20.06600 F30.00000
G01 X5.96900 Y20.06600 F30.00000
G01 X5.96900 Y20.09140 F30.00000
G01 X5.94360 Y20.09140 F30.00000
G01 X5.94360 Y20.11680 F30.00000
G01 X5.91820 Y20.11680 F30.00000
G01 X5.91820 Y20.14220 F30.00000
G01 X5.89280 Y20.14220 F30.00000
G01 X5.89280 Y24.43480 F30.00000
G01 X8.43280 Y24.43480 F30.00000
G01 X8.43280 Y24.20620 F30.00000
G04 P0 ( dwell for no time -- G64 should not smooth over this point )
G00 Z12.00000 ( retract )

G00 X10.97280 Y24.20620 ( rapid move to begin. )
G01 Z10.00000 F30.00000 ( plunge. )
G04 P0 ( dwell for no time -- G64 should not smooth over this point )
G01 X10.97280 Y24.20620 F30.00000
G01 X10.97280 Y23.39340 F30.00000
G01 X10.99820 Y23.39340 F30.00000
G01 X10.99820 Y23.36800 F30.00000
G01 X11.02360 Y23.36800 F30.00000
G01 X11.02360 Y23.34260 F30.00000
G01 X11.04900 Y23.34260 F30.00000
G01 X11.04900 Y23.31720 F30.00000
G01 X11.07440 Y23.31720 F30.00000
G01 X11.07440 Y23.29180 F30.00000
G01 X11.09980 Y23.29180 F30.00000
G01 X11.09980 Y23.26640 F30.00000
G01 X11.12520 Y23.26640 F30.00000
G01 X11.12520 Y23.24100 F30.00000
G01 X11.15060 Y23.24100 F30.00000
G01 X11.15060 Y23.21560 F30.00000
G01 X11.17600 Y23.21560 F30.00000
G01 X11.17600 Y23.19020 F30.00000
G01 X11.20140 Y23.19020 F30.00000
G01 X11.20140 Y23.16480 F30.00000
G01 X11.22680 Y23.16480 F30.00000
G01 X11.22680 Y23.13940 F30.00000
G01 X11.25220 Y23.13940 F30.00000
G01 X11.25220 Y23.08860 F30.00000
G01 X11.27760 Y23.08860 F30.00000
G01 X11.27760 Y23.03780 F30.00000
G01 X11.30300 Y23.03780 F30.00000
G01 X11.30300 Y22.91080 F30.00000
G01 X11.32840 Y22.91080 F30.00000
G01 X11.32840 Y21.53920 F30.00000
G01 X11.35380 Y21.53920 F30.00000
G01 X11.35380 Y21.38680 F30.00000
G01 X11.37920 Y21.38680 F30.00000
G01 X11.37920 Y21.28520 F30.00000
G01 X11.40460 Y21.28520 F30.00000
G01 X11.40460 Y21.18360 F30.00000
G01 X11.43000 Y21.18360 F30.00000
G01 X11.43000 Y21.10740 F30.00000
G01 X11.45540 Y21.10740 F30.00000
G01 X11.45540 Y21.05660 F30.00000
G01 X11.48080 Y21.05660 F30.00000
G01 X11.48080 Y20.98040 F30.00000
G01 X11.50620 Y20.98040 F30.00000
G01 X11.50620 Y20.92960 F30.00000
G01 X11.53160 Y20.92960 F30.00000
G01 X11.53160 Y20.87880 F30.00000
G01 X11.55700 Y20.87880 F30.00000
G01 X11.55700 Y20.82800 F30.00000
G01 X11.58240 Y20.82800 F30.00000
G01 X11.58240 Y20.77720 F30.00000
G01 X12.06500 Y20.77720 F30.00000
G01 X12.06500 Y20.75180 F30.00000
G01 X12.19200 Y20.75180 F30.00000
G01 X12.19200 Y20.72640 F30.00000
G01 X12.21740 Y20.72640 F30.00000
G01 X12.21740 Y20.65020 F30.00000
G01 X12.24280 Y20.65020 F30.00000
G01 X12.24280 Y12.54760 F30.00000
G01 X10.97280 Y12.54760 F30.00000
G01 X10.97280 Y19.53260 F30.00000
G01 X10.94740 Y19.53260 F30.00000
G01 X10.94740 Y19.55800 F30.00000
G01 X10.92200 Y19.55800 F30.00000
G01 X10.92200 Y19.58340 F30.00000
G01 X10.89660 Y19.58340 F30.00000
G01 X10.89660 Y19.60880 F30.00000
G01 X10.87120 Y19.60880 F30.00000
G01 X10.87120 Y19.63420 F30.00000
G01 X10.84580 Y19.63420 F30.00000
G01 X10.84580 Y19.65960 F30.00000
G01 X10.82040 Y19.65960 F30.00000
G01 X10.82040 Y19.68500 F30.00000
G01 X10.79500 Y19.68500 F30.00000
G01 X10.79500 Y19.71040 F30.00000
G01 X10.76960 Y19.71040 F30.00000
G01 X10.76960 Y19.73580 F30.00000
G01 X10.74420 Y19.73580 F30.00000
G01 X10.74420 Y19.76120 F30.00000
G01 X10.71880 Y19.76120 F30.00000
G01 X10.71880 Y19.81200 F30.00000
G01 X10.69340 Y19.81200 F30.00000
G01 X10.69340 Y19.86280 F30.00000
G01 X10.66800 Y19.86280 F30.00000
G01 X10.66800 Y19.98980 F30.00000
G01 X10.64260 Y19.98980 F30.00000
G01 X10.64260 Y20.39620 F30.00000
G01 X10.61720 Y20.39620 F30.00000
G01 X10.61720 Y20.47240 F30.00000
G01 X10.59180 Y20.47240 F30.00000
G01 X10.59180 Y20.52320 F30.00000
G01 X10.56640 Y20.52320 F30.00000
G01 X10.56640 Y20.57400 F30.00000
G01 X10.54100 Y20.57400 F30.00000
G01 X10.54100 Y20.59940 F30.00000
G01 X10.51560 Y20.59940 F30.00000
G01 X10.51560 Y20.62480 F30.00000
G01 X10.49020 Y20.62480 F30.00000
G01 X10.49020 Y20.65020 F30.00000
G01 X10.46480 Y20.65020 F30.00000
G01 X10.46480 Y20.67560 F30.00000
G01 X10.43940 Y20.67560 F30.00000
G01 X10.43940 Y20.70100 F30.00000
G01 X10.41400 Y20.70100 F30.00000
G01 X10.41400 Y20.72640 F30.00000
G01 X10.38860 Y20.72640 F30.00000
G01 X10.38860 Y20.75180 F30.00000
G01 X10.36320 Y20.75180 F30.00000
G01 X10.36320 Y20.77720 F30.00000
G01 X9.04240 Y20.77720 F30.00000
G01 X9.04240 Y20.80260 F30.00000
G01 X8.89000 Y20.80260 F30.00000
G01 X8.89000 Y20.82800 F30.00000
G01 X8.78840 Y20.82800 F30.00000
G01 X8.78840 Y20.85340 F30.00000
G01 X8.68680 Y20.85340 F30.00000
G01 X8.68680 Y20.87880 F30.00000
G01 X8.61060 Y20.87880 F30.00000
G01 X8.61060 Y20.90420 F30.00000
G01 X8.55980 Y20.90420 F30.00000
G01 X8.55980 Y20.92960 F30.00000
G01 X8.48360 Y20.92960 F30.00000
G01 X8.48360 Y20.95500 F30.00000
G01 X8.43280 Y20.95500 F30.00000
G01 X8.43280 Y24.43480 F30.00000
G01 X10.97280 Y24.43480 F30.00000
G01 X10.97280 Y24.20620 F30.00000
G04 P0 ( dwell for no time -- G64 should not smooth over this point )
G00 Z12.00000 ( retract )

G00 X13.51280 Y24.20620 ( rapid move to begin. )
G01 Z10.00000 F30.00000 ( plunge. )
G04 P0 ( dwell for no time -- G64 should not smooth over this point )
G01 X13.51280 Y24.20620 F30.00000
G01 X13.51280 Y12.54760 F30.00000
G01 X12.24280 Y12.54760 F30.00000
G01 X12.24280 Y20.65020 F30.00000
G01 X12.21740 Y20.65020 F30.00000
G01 X12.21740 Y20.72640 F30.00000
G01 X12.19200 Y20.72640 F30.00000
G01 X12.19200 Y20.75180 F30.00000
G01 X12.06500 Y20.75180 F30.00000
G01 X12.06500 Y20.77720 F30.00000
G01 X11.58240 Y20.77720 F30.00000
G01 X11.58240 Y20.82800 F30.00000
G01 X11.55700 Y20.82800 F30.00000
G01 X11.55700 Y20.87880 F30.00000
G01 X11.53160 Y20.87880 F30.00000
G01 X11.53160 Y20.92960 F30.00000
G01 X11.50620 Y20.92960 F30.00000
G01 X11.50620 Y20.98040 F30.00000
G01 X11.48080 Y20.98040 F30.00000
G01 X11.48080 Y21.05660 F30.00000
G01 X11.45540 Y21.05660 F30.00000
G01 X11.45540 Y21.10740 F30.00000
G01 X11.43000 Y21.10740 F30.00000
G01 X11.43000 Y21.18360 F30.00000
G01 X11.40460 Y21.18360 F30.00000
G01 X11.40460 Y21.28520 F30.00000
G01 X11.37920 Y21.28520 F30.00000
G01 X11.37920 Y21.38680 F30.00000
G01 X11.35380 Y21.38680 F30.00000
G01 X11.35380 Y21.53920 F30.00000
G01 X11.32840 Y21.53920 F30.00000
G01 X11.32840 Y22.91080 F30.00000
G01 X11.30300 Y22.91080 F30.00000
G01 X11.30300 Y23.03780 F30.00000
G01 X11.27760 Y23.03780 F30.00000
G01 X11.27760 Y23.08860 F30.00000
G01 X11.25220 Y23.08860 F30.00000
G01 X11.25220 Y23.13940 F30.00000
G01 X11.22680 Y23.13940 F30.00000
G01 X11.22680 Y23.16480 F30.00000
G01 X11.20140 Y23.16480 F30.00000
G01 X11.20140 Y23.19020 F30.00000
G01 X11.17600 Y23.19020 F30.00000
G01 X11.17600 Y23.21560 F30.00000
G01 X11.15060 Y23.21560 F30.00000
G01 X11.15060 Y23.24100 F30.00000
G01 X11.12520 Y23.24100 F30.00000
G01 X11.12520 Y23.26640 F30.00000
G01 X11.09980 Y23.26640 F30.00000
G01 X11.09980 Y23.29180 F30.00000
G01 X11.07440 Y23.29180 F30.00000
G01 X11.07440 Y23.31720 F30.00000
G01 X11.04900 Y23.31720 F30.00000
G01 X11.04900 Y23.34260 F30.00000
G01 X11.02360 Y23.34260 F30.00000
G01 X11.02360 Y23.36800 F30.00000
G01 X10.99820 Y23.36800 F30.00000
G01 X10.99820 Y23.39340 F30.00000
G01 X10.97280 Y23.39340 F30.00000
G01 X10.97280 Y24.43480 F30.00000
G01 X13.51280 Y24.43480 F30.00000
G01 X13.51280 Y24.20620 F30.00000
G04 P0 ( dwell for no time -- G64 should not smooth over this point )
G00 Z12.00000 ( retract )

G00 X16.05280 Y24.20620 ( rapid move to begin. )
G01 Z10.00000 F30.00000 ( plunge. )
G04 P0 ( dwell for no time -- G64 should not smooth over this point )
G01 X16.05280 Y24.20620 F30.00000
G01 X16.05280 Y23.39340 F30.00000
G01 X16.02740 Y23.39340 F30.00000
G01 X16.02740 Y23.36800 F30.00000
G01 X16.00200 Y23.36800 F30.00000
G01 X16.00200 Y23.34260 F30.00000
G01 X15.97660 Y23.34260 F30.00000
G01 X15.97660 Y23.31720 F30.00000
G01 X15.95120 Y23.31720 F30.00000
G01 X15.95120 Y23.29180 F30.00000
G01 X15.92580 Y23.29180 F30.00000
G01 X15.92580 Y23.26640 F30.00000
G01 X15.90040 Y23.26640 F30.00000
G01 X15.90040 Y23.24100 F30.00000
G01 X15.87500 Y23.24100 F30.00000
G01 X15.87500 Y23.21560 F30.00000
G01 X15.84960 Y23.21560 F30.00000
G01 X15.84960 Y23.19020 F30.00000
G01 X15.82420 Y23.19020 F30.00000
G01 X15.82420 Y23.16480 F30.00000
G01 X15.79880 Y23.16480 F30.00000
G01 X15.79880 Y23.13940 F30.00000
G01 X15.77340 Y23.13940 F30.00000
G01 X15.77340 Y23.08860 F30.00000
G01 X15.74800 Y23.08860 F30.00000
G01 X15.74800 Y23.03780 F30.00000
G01 X15.72260 Y23.03780 F30.00000
G01 X15.72260 Y22.96160 F30.00000
G01 X15.69720 Y22.96160 F30.00000
G01 X15.69720 Y21.66620 F30.00000
G01 X15.67180 Y21.66620 F30.00000
G01 X15.67180 Y21.46300 F30.00000
G01 X15.64640 Y21.46300 F30.00000
G01 X15.64640 Y21.33600 F30.00000
G01 X15.62100 Y21.33600 F30.00000
G01 X15.62100 Y21.23440 F30.00000
G01 X15.59560 Y21.23440 F30.00000
G01 X15.59560 Y21.13280 F30.00000
G01 X15.57020 Y21.13280 F30.00000
G01 X15.57020 Y21.05660 F30.00000
G01 X15.54480 Y21.05660 F30.00000
G01 X15.54480 Y21.00580 F30.00000
G01 X15.51940 Y21.00580 F30.00000
G01 X15.51940 Y20.92960 F30.00000
G01 X15.49400 Y20.92960 F30.00000
G01 X15.49400 Y20.87880 F30.00000
G01 X15.46860 Y20.87880 F30.00000
G01 X15.46860 Y20.82800 F30.00000
G01 X15.44320 Y20.82800 F30.00000
G01 X15.44320 Y20.80260 F30.00000
G01 X15.41780 Y20.80260 F30.00000
G01 X15.41780 Y20.77720 F30.00000
G01 X15.31620 Y20.77720 F30.00000
G01 X15.31620 Y20.75180 F30.00000
G01 X14.88440 Y20.75180 F30.00000
G01 X14.88440 Y20.72640 F30.00000
G01 X14.80820 Y20.72640 F30.00000
G01 X14.80820 Y20.70100 F30.00000
G01 X14.78280 Y20.70100 F30.00000
G01 X14.78280 Y12.54760 F30.00000
G01 X13.51280 Y12.54760 F30.00000
G01 X13.51280 Y24.43480 F30.00000
G01 X16.05280 Y24.43480 F30.00000
G01 X16.05280 Y24.20620 F30.00000
G04 P0 ( dwell for no time -- G64 should not smooth over this point )
G00 Z12.00000 ( retract )

G00 X18.59280 Y24.20620 ( rapid move to begin. )
G01 Z10.00000 F30.00000 ( plunge. )
G04 P0 ( dwell for no time -- G64 should not smooth over this point )
G01 X18.59280 Y24.20620 F30.00000
G01 X18.59280 Y20.95500 F30.00000
G01 X18.54200 Y20.95500 F30.00000
G01 X18.54200 Y20.92960 F30.00000
G01 X18.49120 Y20.92960 F30.00000
G01 X18.49120 Y20.90420 F30.00000
G01 X18.44040 Y20.90420 F30.00000
G01 X18.44040 Y20.87880 F30.00000
G01 X18.36420 Y20.87880 F30.00000
G01 X18.36420 Y20.85340 F30.00000
G01 X18.26260 Y20.85340 F30.00000
G01 X18.26260 Y20.82800 F30.00000
G01 X18.18640 Y20.82800 F30.00000
G01 X18.18640 Y20.80260 F30.00000
G01 X18.05940 Y20.80260 F30.00000
G01 X18.05940 Y20.77720 F30.00000
G01 X17.85620 Y20.77720 F30.00000
G01 X17.85620 Y20.75180 F30.00000
G01 X16.76400 Y20.75180 F30.00000
G01 X16.76400 Y20.77720 F30.00000
G01 X16.66240 Y20.77720 F30.00000
G01 X16.66240 Y20.75180 F30.00000
G01 X16.63700 Y20.75180 F30.00000
G01 X16.63700 Y20.72640 F30.00000
G01 X16.61160 Y20.72640 F30.00000
G01 X16.61160 Y20.70100 F30.00000
G01 X16.58620 Y20.70100 F30.00000
G01 X16.58620 Y20.67560 F30.00000
G01 X16.56080 Y20.67560 F30.00000
G01 X16.56080 Y20.65020 F30.00000
G01 X16.53540 Y20.65020 F30.00000
G01 X16.53540 Y20.62480 F30.00000
G01 X16.51000 Y20.62480 F30.00000
G01 X16.51000 Y20.59940 F30.00000
G01 X16.48460 Y20.59940 F30.00000
G01 X16.48460 Y20.57400 F30.00000
G01 X16.45920 Y20.57400 F30.00000
G01 X16.45920 Y20.54860 F30.00000
G01 X16.43380 Y20.54860 F30.00000
G01 X16.43380 Y20.49780 F30.00000
G01 X16.40840 Y20.49780 F30.00000
G01 X16.40840 Y20.44700 F30.00000
G01 X16.38300 Y20.44700 F30.00000
G01 X16.38300 Y20.32000 F30.00000
G01 X16.35760 Y20.32000 F30.00000
G01 X16.35760 Y19.91360 F30.00000
G01 X16.33220 Y19.91360 F30.00000
G01 X16.33220 Y19.83740 F30.00000
G01 X16.30680 Y19.83740 F30.00000
G01 X16.30680 Y19.78660 F30.00000
G01 X16.28140 Y19.78660 F30.00000
G01 X16.28140 Y19.73580 F30.00000
G01 X16.25600 Y19.73580 F30.00000
G01 X16.25600 Y19.71040 F30.00000
G01 X16.23060 Y19.71040 F30.00000
G01 X16.23060 Y19.68500 F30.00000
G01 X16.20520 Y19.68500 F30.00000
G01 X16.20520 Y19.65960 F30.00000
G01 X16.17980 Y19.65960 F30.00000
G01 X16.17980 Y19.63420 F30.00000
G01 X16.15440 Y19.63420 F30.00000
G01 X16.15440 Y19.60880 F30.00000
G01 X16.12900 Y19.60880 F30.00000
G01 X16.12900 Y19.58340 F30.00000
G01 X16.10360 Y19.58340 F30.00000
G01 X16.10360 Y19.55800 F30.00000
G01 X16.07820 Y19.55800 F30.00000
G01 X16.07820 Y19.53260 F30.00000
G01 X16.05280 Y19.53260 F30.00000
G01 X16.05280 Y12.54760 F30.00000
G01 X14.78280 Y12.54760 F30.00000
G01 X14.78280 Y20.70100 F30.00000
G01 X14.80820 Y20.70100 F30.00000
G01 X14.80820 Y20.72640 F30.00000
G01 X14.88440 Y20.72640 F30.00000
G01 X14.88440 Y20.75180 F30.00000
G01 X15.31620 Y20.75180 F30.00000
G01 X15.31620 Y20.77720 F30.00000
G01 X15.41780 Y20.77720 F30.00000
G01 X15.41780 Y20.80260 F30.00000
G01 X15.44320 Y20.80260 F30.00000
G01 X15.44320 Y20.82800 F30.00000
G01 X15.46860 Y20.82800 F30.00000
G01 X15.46860 Y20.87880 F30.00000
G01 X15.49400 Y20.87880 F30.00000
G01 X15.49400 Y20.92960 F30.00000
G01 X15.51940 Y20.92960 F30.00000
G01 X15.51940 Y21.00580 F30.00000
G01 X15.54480 Y21.00580 F30.00000
G01 X15.54480 Y21.05660 F30.00000
G01 X15.57020 Y21.05660 F30.00000
G01 X15.57020 Y21.13280 F30.00000
G01 X15.59560 Y21.13280 F30.00000
G01 X15.59560 Y21.23440 F30.00000
G01 X15.62100 Y21.23440 F30.00000
G01 X15.62100 Y21.33600 F30.00000
G01 X15.64640 Y21.33600 F30.00000
G01 X15.64640 Y21.46300 F30.00000
G01 X15.67180 Y21.46300 F30.00000
G01 X15.67180 Y21.66620 F30.00000
G01 X15.69720 Y21.66620 F30.00000
G01 X15.69720 Y22.96160 F30.00000
G01 X15.72260 Y22.96160 F30.00000
G01 X15.72260 Y23.03780 F30.00000
G01 X15.74800 Y23.03780 F30.00000
G01 X15.74800 Y23.08860 F30.00000
G01 X15.77340 Y23.08860 F30.00000
G01 X15.77340 Y23.13940 F30.00000
G01 X15.79880 Y23.13940 F30.00000
G01 X15.79880 Y23.16480 F30.00000
G01 X15.82420 Y23.16480 F30.00000
G01 X15.82420 Y23.19020 F30.00000
G01 X15.84960 Y23.19020 F30.00000
G01 X15.84960 Y23.21560 F30.00000
G01 X15.87500 Y23.21560 F30.00000
G01 X15.87500 Y23.24100 F30.00000
G01 X15.90040 Y23.24100 F30.00000
G01 X15.90040 Y23.26640 F30.00000
G01 X15.92580 Y23.26640 F30.00000
G01 X15.92580 Y23.29180 F30.00000
G01 X15.95120 Y23.29180 F30.00000
G01 X15.95120 Y23.31720 F30.00000
G01 X15.97660 Y23.31720 F30.00000
G01 X15.97660 Y23.34260 F30.00000
G01 X16.00200 Y23.34260 F30.00000
G01 X16.00200 Y23.36800 F30.00000
G01 X16.02740 Y23.36800 F30.00000
G01 X16.02740 Y23.39340 F30.00000
G01 X16.05280 Y23.39340 F30.00000
G01 X16.05280 Y24.43480 F30.00000
G01 X18.59280 Y24.43480 F30.00000
G01 X18.59280 Y24.20620 F30.00000
G04 P0 ( dwell for no time -- G64 should not smooth over this point )
G00 Z12.00000 ( retract )

G00 X21.13280 Y24.20620 ( rapid move to begin. )
G01 Z10.00000 F30.00000 ( plunge. )
G04 P0 ( dwell for no time -- G64 should not smooth over this point )
G01 X21.13280 Y24.20620 F30.00000
G01 X21.13280 Y20.14220 F30.00000
G01 X21.10740 Y20.14220 F30.00000
G01 X21.10740 Y20.11680 F30.00000
G01 X21.08200 Y20.11680 F30.00000
G01 X21.08200 Y20.09140 F30.00000
G01 X21.05660 Y20.09140 F30.00000
G01 X21.05660 Y20.06600 F30.00000
G01 X21.03120 Y20.06600 F30.00000
G01 X21.03120 Y20.04060 F30.00000
G01 X21.00580 Y20.04060 F30.00000
G01 X21.00580 Y20.01520 F30.00000
G01 X20.98040 Y20.01520 F30.00000
G01 X20.98040 Y19.98980 F30.00000
G01 X20.95500 Y19.98980 F30.00000
G01 X20.95500 Y19.96440 F30.00000
G01 X20.92960 Y19.96440 F30.00000
G01 X20.92960 Y19.93900 F30.00000
G01 X20.90420 Y19.93900 F30.00000
G01 X20.90420 Y19.91360 F30.00000
G01 X20.87880 Y19.91360 F30.00000
G01 X20.87880 Y19.88820 F30.00000
G01 X20.85340 Y19.88820 F30.00000
G01 X20.85340 Y19.86280 F30.00000
G01 X20.82800 Y19.86280 F30.00000
G01 X20.82800 Y19.83740 F30.00000
G01 X20.80260 Y19.83740 F30.00000
G01 X20.80260 Y19.81200 F30.00000
G01 X20.77720 Y19.81200 F30.00000
G01 X20.77720 Y19.78660 F30.00000
G01 X20.75180 Y19.78660 F30.00000
G01 X20.75180 Y19.76120 F30.00000
G01 X20.72640 Y19.76120 F30.00000
G01 X20.72640 Y19.73580 F30.00000
G01 X20.70100 Y19.73580 F30.00000
G01 X20.70100 Y19.71040 F30.00000
G01 X20.67560 Y19.71040 F30.00000
G01 X20.67560 Y19.68500 F30.00000
G01 X20.65020 Y19.68500 F30.00000
G01 X20.65020 Y19.65960 F30.00000
G01 X20.62480 Y19.65960 F30.00000
G01 X20.62480 Y19.63420 F30.00000
G01 X20.59940 Y19.63420 F30.00000
G01 X20.59940 Y19.60880 F30.00000
G01 X20.57400 Y19.60880 F30.00000
G01 X20.57400 Y19.58340 F30.00000
G01 X20.52320 Y19.58340 F30.00000
G01 X20.52320 Y19.55800 F30.00000
G01 X20.47240 Y19.55800 F30.00000
G01 X20.47240 Y19.53260 F30.00000
G01 X20.34540 Y19.53260 F30.00000
G01 X20.34540 Y19.50720 F30.00000
G01 X17.39900 Y19.50720 F30.00000
G01 X17.39900 Y19.48180 F30.00000
G01 X17.34820 Y19.48180 F30.00000
G01 X17.34820 Y19.43100 F30.00000
G01 X17.32280 Y19.43100 F30.00000
G01 X17.32280 Y12.54760 F30.00000
G01 X16.05280 Y12.54760 F30.00000
G01 X16.05280 Y19.53260 F30.00000
G01 X16.07820 Y19.53260 F30.00000
G01 X16.07820 Y19.55800 F30.00000
G01 X16.10360 Y19.55800 F30.00000
G01 X16.10360 Y19.58340 F30.00000
G01 X16.12900 Y19.58340 F30.00000
G01 X16.12900 Y19.60880 F30.00000
G01 X16.15440 Y19.60880 F30.00000
G01 X16.15440 Y19.63420 F30.00000
G01 X16.17980 Y19.63420 F30.00000
G01 X16.17980 Y19.65960 F30.00000
G01 X16.20520 Y19.65960 F30.00000
G01 X16.20520 Y19.68500 F30.00000
G01 X16.23060 Y19.68500 F30.00000
G01 X16.23060 Y19.71040 F30.00000
G01 X16.25600 Y19.71040 F30.00000
G01 X16.25600 Y19.73580 F30.00000
G01 X16.28140 Y19.73580 F30.00000
G01 X16.28140 Y19.78660 F30.00000
G01 X16.30680 Y19.78660 F30.00000
G01 X16.30680 Y19.83740 F30.00000
G01 X16.33220 Y19.83740 F30.00000
G01 X16.33220 Y19.91360 F30.00000
G01 X16.35760 Y19.91360 F30.00000
G01 X16.35760 Y20.32000 F30.00000
G01 X16.38300 Y20.32000 F30.00000
G01 X16.38300 Y20.44700 F30.00000
G01 X16.40840 Y20.44700 F30.00000
G01 X16.40840 Y20.49780 F30.00000
G01 X16.43380 Y20.49780 F30.00000
G01 X16.43380 Y20.54860 F30.00000
G01 X16.45920 Y20.54860 F30.00000
G01 X16.45920 Y20.57400 F30.00000
G01 X16.48460 Y20.57400 F30.00000
G01 X16.48460 Y20.59940 F30.00000
G01 X16.51000 Y20.59940 F30.00000
G01 X16.51000 Y20.62480 F30.00000
G01 X16.53540 Y20.62480 F30.00000
G01 X16.53540 Y20.65020 F30.00000
G01 X16.56080 Y20.65020 F30.00000
G01 X16.56080 Y20.67560 F30.00000
G01 X16.58620 Y20.67560 F30.00000
G01 X16.58620 Y20.70100 F30.00000
G01 X16.61160 Y20.70100 F30.00000
G01 X16.61160 Y20.72640 F30.00000
G01 X16.63700 Y20.72640 F30.00000
G01 X16.63700 Y20.75180 F30.00000
G01 X16.66240 Y20.75180 F30.00000
G01 X16.66240 Y20.77720 F30.00000
G01 X16.76400 Y20.77720 F30.00000
G01 X16.76400 Y20.75180 F30.00000
G01 X17.85620 Y20.75180 F30.00000
G01 X17.85620 Y20.77720 F30.00000
G01 X18.05940 Y20.77720 F30.00000
G01 X18.05940 Y20.80260 F30.00000
G01 X18.18640 Y20.80260 F30.00000
G01 X18.18640 Y20.82800 F30.00000
G01 X18.26260 Y20.82800 F30.00000
G01 X18.26260 Y20.85340 F30.00000
G01 X18.36420 Y20.85340 F30.00000
G01 X18.36420 Y20.87880 F30.00000
G01 X18.44040 Y20.87880 F30.00000
G01 X18.44040 Y20.90420 F30.00000
G01 X18.49120 Y20.90420 F30.00000
G01 X18.49120 Y20.92960 F30.00000
G01 X18.54200 Y20.92960 F30.00000
G01 X18.54200 Y20.95500 F30.00000
G01 X18.59280 Y20.95500 F30.00000
G01 X18.59280 Y24.43480 F30.00000
G01 X21.13280 Y24.43480 F30.00000
G01 X21.13280 Y24.20620 F30.00000
G04 P0 ( dwell for no time -- G64 should not smooth over this point )
G00 Z12.00000 ( retract )

G00 X23.67280 Y24.20620 ( rapid move to begin. )
G01 Z10.00000 F30.00000 ( plunge. )
G04 P0 ( dwell for no time -- G64 should not smooth over this point )
G01 X23.67280 Y24.20620 F30.00000
G01 X23.67280 Y18.87220 F30.00000
G01 X23.64740 Y18.87220 F30.00000
G01 X23.64740 Y18.84680 F30.00000
G01 X23.62200 Y18.84680 F30.00000
G01 X23.62200 Y18.82140 F30.00000
G01 X23.59660 Y18.82140 F30.00000
G01 X23.59660 Y18.79600 F30.00000
G01 X23.57120 Y18.79600 F30.00000
G01 X23.57120 Y18.77060 F30.00000
G01 X23.54580 Y18.77060 F30.00000
G01 X23.54580 Y18.74520 F30.00000
G01 X23.52040 Y18.74520 F30.00000
G01 X23.52040 Y18.71980 F30.00000
G01 X23.49500 Y18.71980 F30.00000
G01 X23.49500 Y18.69440 F30.00000
G01 X23.46960 Y18.69440 F30.00000
G01 X23.46960 Y18.66900 F30.00000
G01 X23.44420 Y18.66900 F30.00000
G01 X23.44420 Y18.64360 F30.00000
G01 X23.41880 Y18.64360 F30.00000
G01 X23.41880 Y18.61820 F30.00000
G01 X23.39340 Y18.61820 F30.00000
G01 X23.39340 Y18.59280 F30.00000
G01 X23.36800 Y18.59280 F30.00000
G01 X23.36800 Y18.56740 F30.00000
G01 X23.34260 Y18.56740 F30.00000
G01 X23.34260 Y18.54200 F30.00000
G01 X23.31720 Y18.54200 F30.00000
G01 X23.31720 Y18.51660 F30.00000
G01 X23.29180 Y18.51660 F30.00000
G01 X23.29180 Y18.49120 F30.00000
G01 X23.26640 Y18.49120 F30.00000
G01 X23.26640 Y18.46580 F30.00000
G01 X23.24100 Y18.46580 F30.00000
G01 X23.24100 Y18.44040 F30.00000
G01 X23.21560 Y18.44040 F30.00000
G01 X23.21560 Y18.41500 F30.00000
G01 X23.19020 Y18.41500 F30.00000
G01 X23.19020 Y18.38960 F30.00000
G01 X23.16480 Y18.38960 F30.00000
G01 X23.16480 Y18.36420 F30.00000
G01 X23.13940 Y18.36420 F30.00000
G01 X23.13940 Y18.33880 F30.00000
G01 X23.11400 Y18.33880 F30.00000
G01 X23.11400 Y18.31340 F30.00000
G01 X23.06320 Y18.31340 F30.00000
G01 X23.06320 Y18.28800 F30.00000
G01 X23.01240 Y18.28800 F30.00000
G01 X23.01240 Y18.26260 F30.00000
G01 X22.88540 Y18.26260 F30.00000
G01 X22.88540 Y18.23720 F30.00000
G01 X19.93900 Y18.23720 F30.00000
G01 X19.93900 Y18.26260 F30.00000
G01 X19.91360 Y18.26260 F30.00000
G01 X19.91360 Y18.28800 F30.00000
G01 X19.88820 Y18.28800 F30.00000
G01 X19.88820 Y18.31340 F30.00000
G01 X19.86280 Y18.31340 F30.00000
G01 X19.86280 Y18.33880 F30.00000
G01 X19.83740 Y18.33880 F30.00000
G01 X19.83740 Y18.36420 F30.00000
G01 X19.81200 Y18.36420 F30.00000
G01 X19.81200 Y18.38960 F30.00000
G01 X19.78660 Y18.38960 F30.00000
G01 X19.78660 Y18.41500 F30.00000
G01 X19.76120 Y18.41500 F30.00000
G01 X19.76120 Y18.44040 F30.00000
G01 X19.73580 Y18.44040 F30.00000
G01 X19.73580 Y18.46580 F30.00000
G01 X19.71040 Y18.46580 F30.00000
G01 X19.71040 Y18.49120 F30.00000
G01 X19.68500 Y18.49120 F30.00000
G01 X19.68500 Y18.51660 F30.00000
G01 X19.65960 Y18.51660 F30.00000
G01 X19.65960 Y18.54200 F30.00000
G01 X18.77060 Y18.54200 F30.00000
G01 X18.77060 Y18.51660 F30.00000
G01 X18.74520 Y18.51660 F30.00000
G01 X18.74520 Y18.49120 F30.00000
G01 X18.71980 Y18.49120 F30.00000
G01 X18.71980 Y18.46580 F30.00000
G01 X18.69440 Y18.46580 F30.00000
G01 X18.69440 Y18.44040 F30.00000
G01 X18.66900 Y18.44040 F30.00000
G01 X18.66900 Y18.41500 F30.00000
G01 X18.64360 Y18.41500 F30.00000
G01 X18.64360 Y18.38960 F30.00000
G01 X18.61820 Y18.38960 F30.00000
G01 X18.61820 Y18.36420 F30.00000
G01 X18.59280 Y18.36420 F30.00000
G01 X18.59280 Y12.54760 F30.00000
G01 X17.32280 Y12.54760 F30.00000
G01 X17.32280 Y19.43100 F30.00000
G01 X17.34820 Y19.43100 F30.00000
G01 X17.34820 Y19.48180 F30.00000
G01 X17.39900 Y19.48180 F30.00000
G01 X17.39900 Y19.50720 F30.00000
G01 X20.34540 Y19.50720 F30.00000
G01 X20.34540 Y19.53260 F30.00000
G01 X20.47240 Y19.53260 F30.00000
G01 X20.47240 Y19.55800 F30.00000
G01 X20.52320 Y19.55800 F30.00000
G01 X20.52320 Y19.58340 F30.00000
G01 X20.57400 Y19.58340 F30.00000
G01 X20.57400 Y19.60880 F30.00000
G01 X20.59940 Y19.60880 F30.00000
G01 X20.59940 Y19.63420 F30.00000
G01 X20.62480 Y19.63420 F30.00000
G01 X20.62480 Y19.65960 F30.00000
G01 X20.65020 Y19.65960 F30.00000
G01 X20.65020 Y19.68500 F30.00000
G01 X20.67560 Y19.68500 F30.00000
G01 X20.67560 Y19.71040 F30.00000
G01 X20.70100 Y19.71040 F30.00000
G01 X20.70100 Y19.73580 F30.00000
G01 X20.72640 Y19.73580 F30.00000
G01 X20.72640 Y19.76120 F30.00000
G01 X20.75180 Y19.76120 F30.00000
G01 X20.75180 Y19.78660 F30.00000
G01 X20.77720 Y19.78660 F30.00000
G01 X20.77720 Y19.81200 F30.00000
G01 X20.80260 Y19.81200 F30.00000
G01 X20.80260 Y19.83740 F30.00000
G01 X20.82800 Y19.83740 F30.00000
G01 X20.82800 Y19.86280 F30.00000
G01 X20.85340 Y19.86280 F30.00000
G01 X20.85340 Y19.88820 F30.00000
G01 X20.87880 Y19.88820 F30.00000
G01 X20.87880 Y19.91360 F30.00000
G01 X20.90420 Y19.91360 F30.00000
G01 X20.90420 Y19.93900 F30.00000
G01 X20.92960 Y19.93900 F30.00000
G01 X20.92960 Y19.96440 F30.00000
G01 X20.95500 Y19.96440 F30.00000
G01 X20.95500 Y19.98980 F30.00000
G01 X20.98040 Y19.98980 F30.00000
G01 X20.98040 Y20.01520 F30.00000
G01 X21.00580 Y20.01520 F30.00000
G01 X21.00580 Y20.04060 F30.00000
G01 X21.03120 Y20.04060 F30.00000
G01 X21.03120 Y20.06600 F30.00000
G01 X21.05660 Y20.06600 F30.00000
G01 X21.05660 Y20.09140 F30.00000
G01 X21.08200 Y20.09140 F30.00000
G01 X21.08200 Y20.11680 F30.00000
G01 X21.10740 Y20.11680 F30.00000
G01 X21.10740 Y20.14220 F30.00000
G01 X21.13280 Y20.14220 F30.00000
G01 X21.13280 Y24.43480 F30.00000
G01 X23.67280 Y24.43480 F30.00000
G01 X23.67280 Y24.20620 F30.00000
G04 P0 ( dwell for no time -- G64 should not smooth over this point )
G00 Z12.00000 ( retract )

G00 X25.93340 Y24.20620 ( rapid move to begin. )
G01 Z10.00000 F30.00000 ( plunge. )
G04 P0 ( dwell for no time -- G64 should not smooth over this point )
G01 X25.93340 Y24.20620 F30.00000
G01 X25.93340 Y12.52220 F30.00000
G01 X20.67560 Y12.52220 F30.00000
G01 X20.67560 Y12.54760 F30.00000
G01 X18.59280 Y12.54760 F30.00000
G01 X18.59280 Y18.36420 F30.00000
G01 X18.61820 Y18.36420 F30.00000
G01 X18.61820 Y18.38960 F30.00000
G01 X18.64360 Y18.38960 F30.00000
G01 X18.64360 Y18.41500 F30.00000
G01 X18.66900 Y18.41500 F30.00000
G01 X18.66900 Y18.44040 F30.00000
G01 X18.69440 Y18.44040 F30.00000
G01 X18.69440 Y18.46580 F30.00000
G01 X18.71980 Y18.46580 F30.00000
G01 X18.71980 Y18.49120 F30.00000
G01 X18.74520 Y18.49120 F30.00000
G01 X18.74520 Y18.51660 F30.00000
G01 X18.77060 Y18.51660 F30.00000
G01 X18.77060 Y18.54200 F30.00000
G01 X19.65960 Y18.54200 F30.00000
G01 X19.65960 Y18.51660 F30.00000
G01 X19.68500 Y18.51660 F30.00000
G01 X19.68500 Y18.49120 F30.00000
G01 X19.71040 Y18.49120 F30.00000
G01 X19.71040 Y18.46580 F30.00000
G01 X19.73580 Y18.46580 F30.00000
G01 X19.73580 Y18.44040 F30.00000
G01 X19.76120 Y18.44040 F30.00000
G01 X19.76120 Y18.41500 F30.00000
G01 X19.78660 Y18.41500 F30.00000
G01 X19.78660 Y18.38960 F30.00000
G01 X19.81200 Y18.38960 F30.00000
G01 X19.81200 Y18.36420 F30.00000
G01 X19.83740 Y18.36420 F30.00000
G01 X19.83740 Y18.33880 F30.00000
G01 X19.86280 Y18.33880 F30.00000
G01 X19.86280 Y18.31340 F30.00000
G01 X19.88820 Y18.31340 F30.00000
G01 X19.88820 Y18.28800 F30.00000
G01 X19.91360 Y18.28800 F30.00000
G01 X19.91360 Y18.26260 F30.00000
G01 X19.93900 Y18.26260 F30.00000
G01 X19.93900 Y18.23720 F30.00000
G01 X22.88540 Y18.23720 F30.00000
G01 X22.88540 Y18.26260 F30.00000
G01 X23.01240 Y18.26260 F30.00000
G01 X23.01240 Y18.28800 F30.00000
G01 X23.06320 Y18.28800 F30.00000
G01 X23.06320 Y18.31340 F30.00000
G01 X23.11400 Y18.31340 F30.00000
G01 X23.11400 Y18.33880 F30.00000
G01 X23.13940 Y18.33880 F30.00000
G01 X23.13940 Y18.36420 F30.00000
G01 X23.16480 Y18.36420 F30.00000
G01 X23.16480 Y18.38960 F30.00000
G01 X23.19020 Y18.38960 F30.00000
G01 X23.19020 Y18.41500 F30.00000
G01 X23.21560 Y18.41500 F30.00000
G01 X23.21560 Y18.44040 F30.00000
G01 X23.24100 Y18.44040 F30.00000
G01 X23.24100 Y18.46580 F30.00000
G01 X23.26640 Y18.46580 F30.00000
G01 X23.26640 Y18.49120 F30.00000
G01 X23.29180 Y18.49120 F30.00000
G01 X23.29180 Y18.51660 F30.00000
G01 X23.31720 Y18.51660 F30.00000
G01 X23.31720 Y18.54200 F30.00000
G01 X23.34260 Y18.54200 F30.00000
G01 X23.34260 Y18.56740 F30.00000
G01 X23.36800 Y18.56740 F30.00000
G01 X23.36800 Y18.59280 F30.00000
G01 X23.39340 Y18.59280 F30.00000
G01 X23.39340 Y18.61820 F30.00000
G01 X23.41880 Y18.61820 F30.00000
G01 X23.41880 Y18.64360 F30.00000
G01 X23.44420 Y18.64360 F30.00000
G01 X23.44420 Y18.66900 F30.00000
G01 X23.46960 Y18.66900 F30.00000
G01 X23.46960 Y18.69440 F30.00000
G01 X23.49500 Y18.69440 F30.00000
G01 X23.49500 Y18.71980 F30.00000
G01 X23.52040 Y18.71980 F30.00000
G01 X23.52040 Y18.74520 F30.00000
G01 X23.54580 Y18.74520 F30.00000
G01 X23.54580 Y18.77060 F30.00000
G01 X23.57120 Y18.77060 F30.00000
G01 X23.57120 Y18.79600 F30.00000
G01 X23.59660 Y18.79600 F30.00000
G01 X23.59660 Y18.82140 F30.00000
G01 X23.62200 Y18.82140 F30.00000
G01 X23.62200 Y18.84680 F30.00000
G01 X23.64740 Y18.84680 F30.00000
G01 X23.64740 Y18.87220 F30.00000
G01 X23.67280 Y18.87220 F30.00000
G01 X23.67280 Y24.43480 F30.00000
G01 X25.93340 Y24.43480 F30.00000
G01 X25.93340 Y24.20620 F30.00000
G04 P0 ( dwell for no time -- G64 should not smooth over this point )
G00 Z12.00000 ( retract )

G00 X8.43280 Y8.83920 ( rapid move to begin. )
G01 Z10.00000 F30.00000 ( plunge. )
G04 P0 ( dwell for no time -- G64 should not smooth over this point )
G01 X8.43280 Y8.83920 F30.00000
G01 X8.43280 Y6.70560 F30.00000
G01 X8.40740 Y6.70560 F30.00000
G01 X8.40740 Y6.68020 F30.00000
G01 X8.38200 Y6.68020 F30.00000
G01 X8.38200 Y6.65480 F30.00000
G01 X8.35660 Y6.65480 F30.00000
G01 X8.35660 Y6.62940 F30.00000
G01 X8.33120 Y6.62940 F30.00000
G01 X8.33120 Y6.60400 F30.00000
G01 X8.30580 Y6.60400 F30.00000
G01 X8.30580 Y6.57860 F30.00000
G01 X8.28040 Y6.57860 F30.00000
G01 X8.28040 Y6.55320 F30.00000
G01 X8.25500 Y6.55320 F30.00000
G01 X8.25500 Y6.52780 F30.00000
G01 X7.31520 Y6.52780 F30.00000
G01 X7.31520 Y6.55320 F30.00000
G01 X7.28980 Y6.55320 F30.00000
G01 X7.28980 Y6.57860 F30.00000
G01 X7.26440 Y6.57860 F30.00000
G01 X7.26440 Y6.60400 F30.00000
G01 X7.23900 Y6.60400 F30.00000
G01 X7.23900 Y6.62940 F30.00000
G01 X7.21360 Y6.62940 F30.00000
G01 X7.21360 Y6.65480 F30.00000
G01 X7.18820 Y6.65480 F30.00000
G01 X7.18820 Y6.68020 F30.00000
G01 X7.16280 Y6.68020 F30.00000
G01 X7.16280 Y6.70560 F30.00000
G01 X7.13740 Y6.70560 F30.00000
G01 X7.13740 Y6.73100 F30.00000
G01 X7.11200 Y6.73100 F30.00000
G01 X7.11200 Y6.75640 F30.00000
G01 X7.08660 Y6.75640 F30.00000
G01 X7.08660 Y6.78180 F30.00000
G01 X7.06120 Y6.78180 F30.00000
G01 X7.06120 Y6.80720 F30.00000
G01 X4.06400 Y6.80720 F30.00000
G01 X4.06400 Y6.78180 F30.00000
G01 X3.98780 Y6.78180 F30.00000
G01 X3.98780 Y6.75640 F30.00000
G01 X3.93700 Y6.75640 F30.00000
G01 X3.93700 Y6.73100 F30.00000
G01 X3.88620 Y6.73100 F30.00000
G01 X3.88620 Y6.70560 F30.00000
G01 X3.86080 Y6.70560 F30.00000
G01 X3.86080 Y6.68020 F30.00000
G01 X3.83540 Y6.68020 F30.00000
G01 X3.83540 Y6.65480 F30.00000
G01 X3.81000 Y6.65480 F30.00000
G01 X3.81000 Y6.62940 F30.00000
G01 X3.78460 Y6.62940 F30.00000
G01 X3.78460 Y6.60400 F30.00000
G01 X3.75920 Y6.60400 F30.00000
G01 X3.75920 Y6.57860 F30.00000
G01 X3.73380 Y6.57860 F30.00000
G01 X3.73380 Y6.55320 F30.00000
G01 X3.70840 Y6.55320 F30.00000
G01 X3.70840 Y6.52780 F30.00000
G01 X3.68300 Y6.52780 F30.00000
G01 X3.68300 Y6.50240 F30.00000
G01 X3.65760 Y6.50240 F30.00000
G01 X3.65760 Y6.47700 F30.00000
G01 X3.63220 Y6.47700 F30.00000
G01 X3.63220 Y6.45160 F30.00000
G01 X3.60680 Y6.45160 F30.00000
G01 X3.60680 Y6.42620 F30.00000
G01 X3.58140 Y6.42620 F30.00000
G01 X3.58140 Y6.40080 F30.00000
G01 X3.55600 Y6.40080 F30.00000
G01 X3.55600 Y6.37540 F30.00000
G01 X3.53060 Y6.37540 F30.00000
G01 X3.53060 Y6.35000 F30.00000
G01 X3.50520 Y6.35000 F30.00000
G01 X3.50520 Y6.32460 F30.00000
G01 X3.47980 Y6.32460 F30.00000
G01 X3.47980 Y6.29920 F30.00000
G01 X3.45440 Y6.29920 F30.00000
G01 X3.45440 Y6.27380 F30.00000
G01 X3.42900 Y6.27380 F30.00000
G01 X3.42900 Y6.24840 F30.00000
G01 X3.40360 Y6.24840 F30.00000
G01 X3.40360 Y6.22300 F30.00000
G01 X3.37820 Y6.22300 F30.00000
G01 X3.37820 Y6.19760 F30.00000
G01 X3.35280 Y6.19760 F30.00000
G01 X3.35280 Y0.60960 F30.00000
G01 X1.06680 Y0.60960 F30.00000
G01 X1.06680 Y12.39520 F30.00000
G01 X2.76860 Y12.39520 F30.00000
G01 X2.76860 Y12.42060 F30.00000
G01 X2.79400 Y12.42060 F30.00000
G01 X2.79400 Y12.44600 F30.00000
G01 X2.81940 Y12.44600 F30.00000
G01 X2.81940 Y12.47140 F30.00000
G01 X2.84480 Y12.47140 F30.00000
G01 X2.84480 Y12.49680 F30.00000
G01 X2.87020 Y12.49680 F30.00000
G01 X2.87020 Y12.52220 F30.00000
G01 X2.89560 Y12.52220 F30.00000
G01 X2.89560 Y12.54760 F30.00000
G01 X8.43280 Y12.54760 F30.00000
G01 X8.43280 Y8.83920 F30.00000
G04 P0 ( dwell for no time -- G64 should not smooth over this point )
G00 Z12.00000 ( retract )

G00 X9.70280 Y8.83920 ( rapid move to begin. )
G01 Z10.00000 F30.00000 ( plunge. )
G04 P0 ( dwell for no time -- G64 should not smooth over this point )
G01 X9.70280 Y8.83920 F30.00000
G01 X9.70280 Y5.68960 F30.00000
G01 X9.67740 Y5.68960 F30.00000
G01 X9.67740 Y5.56260 F30.00000
G01 X9.55040 Y5.56260 F30.00000
G01 X9.55040 Y5.53720 F30.00000
G01 X6.60400 Y5.53720 F30.00000
G01 X6.60400 Y5.51180 F30.00000
G01 X6.52780 Y5.51180 F30.00000
G01 X6.52780 Y5.48640 F30.00000
G01 X6.47700 Y5.48640 F30.00000
G01 X6.47700 Y5.46100 F30.00000
G01 X6.42620 Y5.46100 F30.00000
G01 X6.42620 Y5.43560 F30.00000
G01 X6.40080 Y5.43560 F30.00000
G01 X6.40080 Y5.41020 F30.00000
G01 X6.37540 Y5.41020 F30.00000
G01 X6.37540 Y5.38480 F30.00000
G01 X6.35000 Y5.38480 F30.00000
G01 X6.35000 Y5.35940 F30.00000
G01 X6.32460 Y5.35940 F30.00000
G01 X6.32460 Y5.33400 F30.00000
G01 X6.29920 Y5.33400 F30.00000
G01 X6.29920 Y5.30860 F30.00000
G01 X6.27380 Y5.30860 F30.00000
G01 X6.27380 Y5.28320 F30.00000
G01 X6.24840 Y5.28320 F30.00000
G01 X6.24840 Y5.25780 F30.00000
G01 X6.22300 Y5.25780 F30.00000
G01 X6.22300 Y5.23240 F30.00000
G01 X6.19760 Y5.23240 F30.00000
G01 X6.19760 Y5.20700 F30.00000
G01 X6.17220 Y5.20700 F30.00000
G01 X6.17220 Y5.18160 F30.00000
G01 X6.14680 Y5.18160 F30.00000
G01 X6.14680 Y5.15620 F30.00000
G01 X6.12140 Y5.15620 F30.00000
G01 X6.12140 Y5.13080 F30.00000
G01 X6.09600 Y5.13080 F30.00000
G01 X6.09600 Y5.10540 F30.00000
G01 X6.07060 Y5.10540 F30.00000
G01 X6.07060 Y5.08000 F30.00000
G01 X6.04520 Y5.08000 F30.00000
G01 X6.04520 Y5.05460 F30.00000
G01 X6.01980 Y5.05460 F30.00000
G01 X6.01980 Y5.02920 F30.00000
G01 X5.99440 Y5.02920 F30.00000
G01 X5.99440 Y5.00380 F30.00000
G01 X5.96900 Y5.00380 F30.00000
G01 X5.96900 Y4.97840 F30.00000
G01 X5.94360 Y4.97840 F30.00000
G01 X5.94360 Y4.95300 F30.00000
G01 X5.91820 Y4.95300 F30.00000
G01 X5.91820 Y4.92760 F30.00000
G01 X5.89280 Y4.92760 F30.00000
G01 X5.89280 Y0.60960 F30.00000
G01 X3.35280 Y0.60960 F30.00000
G01 X3.35280 Y6.19760 F30.00000
G01 X3.37820 Y6.19760 F30.00000
G01 X3.37820 Y6.22300 F30.00000
G01 X3.40360 Y6.22300 F30.00000
G01 X3.40360 Y6.24840 F30.00000
G01 X3.42900 Y6.24840 F30.00000
G01 X3.42900 Y6.27380 F30.00000
G01 X3.45440 Y6.27380 F30.00000
G01 X3.45440 Y6.29920 F30.00000
G01 X3.47980 Y6.29920 F30.00000
G01 X3.47980 Y6.32460 F30.00000
G01 X3.50520 Y6.32460 F30.00000
G01 X3.50520 Y6.35000 F30.00000
G01 X3.53060 Y6.35000 F30.00000
G01 X3.53060 Y6.37540 F30.00000
G01 X3.55600 Y6.37540 F30.00000
G01 X3.55600 Y6.40080 F30.00000
G01 X3.58140 Y6.40080 F30.00000
G01 X3.58140 Y6.42620 F30.00000
G01 X3.60680 Y6.42620 F30.00000
G01 X3.60680 Y6.45160 F30.00000
G01 X3.63220 Y6.45160 F30.00000
G01 X3.63220 Y6.47700 F30.00000
G01 X3.65760 Y6.47700 F30.00000
G01 X3.65760 Y6.50240 F30.00000
G01 X3.68300 Y6.50240 F30.00000
G01 X3.68300 Y6.52780 F30.00000
G01 X3.70840 Y6.52780 F30.00000
G01 X3.70840 Y6.55320 F30.00000
G01 X3.73380 Y6.55320 F30.00000
G01 X3.73380 Y6.57860 F30.00000
G01 X3.75920 Y6.57860 F30.00000
G01 X3.75920 Y6.60400 F30.00000
G01 X3.78460 Y6.60400 F30.00000
G01 X3.78460 Y6.62940 F30.00000
G01 X3.81000 Y6.62940 F30.00000
G01 X3.81000 Y6.65480 F30.00000
G01 X3.83540 Y6.65480 F30.00000
G01 X3.83540 Y6.68020 F30.00000
G01 X3.86080 Y6.68020 F30.00000
G01 X3.86080 Y6.70560 F30.00000
G01 X3.88620 Y6.70560 F30.00000
G01 X3.88620 Y6.73100 F30.00000
G01 X3.93700 Y6.73100 F30.00000
G01 X3.93700 Y6.75640 F30.00000
G01 X3.98780 Y6.75640 F30.00000
G01 X3.98780 Y6.78180 F30.00000
G01 X4.06400 Y6.78180 F30.00000
G01 X4.06400 Y6.80720 F30.00000
G01 X7.06120 Y6.80720 F30.00000
G01 X7.06120 Y6.78180 F30.00000
G01 X7.08660 Y6.78180 F30.00000
G01 X7.08660 Y6.75640 F30.00000
G01 X7.11200 Y6.75640 F30.00000
G01 X7.11200 Y6.73100 F30.00000
G01 X7.13740 Y6.73100 F30.00000
G01 X7.13740 Y6.70560 F30.00000
G01 X7.16280 Y6.70560 F30.00000
G01 X7.16280 Y6.68020 F30.00000
G01 X7.18820 Y6.68020 F30.00000
G01 X7.18820 Y6.65480 F30.00000
G01 X7.21360 Y6.65480 F30.00000
G01 X7.21360 Y6.62940 F30.00000
G01 X7.23900 Y6.62940 F30.00000
G01 X7.23900 Y6.60400 F30.00000
G01 X7.26440 Y6.60400 F30.00000
G01 X7.26440 Y6.57860 F30.00000
G01 X7.28980 Y6.57860 F30.00000
G01 X7.28980 Y6.55320 F30.00000
G01 X7.31520 Y6.55320 F30.00000
G01 X7.31520 Y6.52780 F30.00000
G01 X8.25500 Y6.52780 F30.00000
G01 X8.25500 Y6.55320 F30.00000
G01 X8.28040 Y6.55320 F30.00000
G01 X8.28040 Y6.57860 F30.00000
G01 X8.30580 Y6.57860 F30.00000
G01 X8.30580 Y6.60400 F30.00000
G01 X8.33120 Y6.60400 F30.00000
G01 X8.33120 Y6.62940 F30.00000
G01 X8.35660 Y6.62940 F30.00000
G01 X8.35660 Y6.65480 F30.00000
G01 X8.38200 Y6.65480 F30.00000
G01 X8.38200 Y6.68020 F30.00000
G01 X8.40740 Y6.68020 F30.00000
G01 X8.40740 Y6.70560 F30.00000
G01 X8.43280 Y6.70560 F30.00000
G01 X8.43280 Y12.54760 F30.00000
G01 X9.70280 Y12.54760 F30.00000
G01 X9.70280 Y8.83920 F30.00000
G04 P0 ( dwell for no time -- G64 should not smooth over this point )
G00 Z12.00000 ( retract )

G00 X10.97280 Y8.83920 ( rapid move to begin. )
G01 Z10.00000 F30.00000 ( plunge. )
G04 P0 ( dwell for no time -- G64 should not smooth over this point )
G01 X10.97280 Y8.83920 F30.00000
G01 X10.97280 Y5.53720 F30.00000
G01 X10.94740 Y5.53720 F30.00000
G01 X10.94740 Y5.51180 F30.00000
G01 X10.92200 Y5.51180 F30.00000
G01 X10.92200 Y5.48640 F30.00000
G01 X10.89660 Y5.48640 F30.00000
G01 X10.89660 Y5.46100 F30.00000
G01 X10.87120 Y5.46100 F30.00000
G01 X10.87120 Y5.43560 F30.00000
G01 X10.84580 Y5.43560 F30.00000
G01 X10.84580 Y5.41020 F30.00000
G01 X10.82040 Y5.41020 F30.00000
G01 X10.82040 Y5.38480 F30.00000
G01 X10.79500 Y5.38480 F30.00000
G01 X10.79500 Y5.35940 F30.00000
G01 X10.76960 Y5.35940 F30.00000
G01 X10.76960 Y5.33400 F30.00000
G01 X10.74420 Y5.33400 F30.00000
G01 X10.74420 Y5.30860 F30.00000
G01 X10.71880 Y5.30860 F30.00000
G01 X10.71880 Y5.25780 F30.00000
G01 X10.69340 Y5.25780 F30.00000
G01 X10.69340 Y5.20700 F30.00000
G01 X10.66800 Y5.20700 F30.00000
G01 X10.66800 Y5.08000 F30.00000
G01 X10.64260 Y5.08000 F30.00000
G01 X10.64260 Y4.67360 F30.00000
G01 X10.61720 Y4.67360 F30.00000
G01 X10.61720 Y4.59740 F30.00000
G01 X10.59180 Y4.59740 F30.00000
G01 X10.59180 Y4.54660 F30.00000
G01 X10.56640 Y4.54660 F30.00000
G01 X10.56640 Y4.49580 F30.00000
G01 X10.54100 Y4.49580 F30.00000
G01 X10.54100 Y4.47040 F30.00000
G01 X10.51560 Y4.47040 F30.00000
G01 X10.51560 Y4.44500 F30.00000
G01 X10.49020 Y4.44500 F30.00000
G01 X10.49020 Y4.41960 F30.00000
G01 X10.46480 Y4.41960 F30.00000
G01 X10.46480 Y4.39420 F30.00000
G01 X10.43940 Y4.39420 F30.00000
G01 X10.43940 Y4.36880 F30.00000
G01 X10.41400 Y4.36880 F30.00000
G01 X10.41400 Y4.34340 F30.00000
G01 X10.38860 Y4.34340 F30.00000
G01 X10.38860 Y4.31800 F30.00000
G01 X10.36320 Y4.31800 F30.00000
G01 X10.36320 Y4.29260 F30.00000
G01 X9.04240 Y4.29260 F30.00000
G01 X9.04240 Y4.26720 F30.00000
G01 X8.89000 Y4.26720 F30.00000
G01 X8.89000 Y4.24180 F30.00000
G01 X8.78840 Y4.24180 F30.00000
G01 X8.78840 Y4.21640 F30.00000
G01 X8.68680 Y4.21640 F30.00000
G01 X8.68680 Y4.19100 F30.00000
G01 X8.61060 Y4.19100 F30.00000
G01 X8.61060 Y4.16560 F30.00000
G01 X8.55980 Y4.16560 F30.00000
G01 X8.55980 Y4.14020 F30.00000
G01 X8.48360 Y4.14020 F30.00000
G01 X8.48360 Y4.11480 F30.00000
G01 X8.43280 Y4.11480 F30.00000
G01 X8.43280 Y0.60960 F30.00000
G01 X5.89280 Y0.60960 F30.00000
G01 X5.89280 Y4.92760 F30.00000
G01 X5.91820 Y4.92760 F30.00000
G01 X5.91820 Y4.95300 F30.00000
G01 X5.94360 Y4.95300 F30.00000
G01 X5.94360 Y4.97840 F30.00000
G01 X5.96900 Y4.97840 F30.00000
G01 X5.96900 Y5.00380 F30.00000
G01 X5.99440 Y5.00380 F30.00000
G01 X5.99440 Y5.02920 F30.00000
G01 X6.01980 Y5.02920 F30.00000
G01 X6.01980 Y5.05460 F30.00000
G01 X6.04520 Y5.05460 F30.00000
G01 X6.04520 Y5.08000 F30.00000
G01 X6.07060 Y5.08000 F30.00000
G01 X6.07060 Y5.10540 F30.00000
G01 X6.09600 Y5.10540 F30.00000
G01 X6.09600 Y5.13080 F30.00000
G01 X6.12140 Y5.13080 F30.00000
G01 X6.12140 Y5.15620 F30.00000
G01 X6.14680 Y5.15620 F30.00000
G01 X6.14680 Y5.18160 F30.00000
G01 X6.17220 Y5.18160 F30.00000
G01 X6.17220 Y5.20700 F30.00000
G01 X6.19760 Y5.20700 F30.00000
G01 X6.19760 Y5.23240 F30.00000
G01 X6.22300 Y5.23240 F30.00000
G01 X6.22300 Y5.25780 F30.00000
G01 X6.24840 Y5.25780 F30.00000
G01 X6.24840 Y5.28320 F30.00000
G01 X6.27380 Y5.28320 F30.00000
G01 X6.27380 Y5.30860 F30.00000
G01 X6.29920 Y5.30860 F30.00000
G01 X6.29920 Y5.33400 F30.00000
G01 X6.32460 Y5.33400 F30.00000
G01 X6.32460 Y5.35940 F30.00000
G01 X6.35000 Y5.35940 F30.00000
G01 X6.35000 Y5.38480 F30.00000
G01 X6.37540 Y5.38480 F30.00000
G01 X6.37540 Y5.41020 F30.00000
G01 X6.40080 Y5.41020 F30.00000
G01 X6.40080 Y5.43560 F30.00000
G01 X6.42620 Y5.43560 F30.00000
G01 X6.42620 Y5.46100 F30.00000
G01 X6.47700 Y5.46100 F30.00000
G01 X6.47700 Y5.48640 F30.00000
G01 X6.52780 Y5.48640 F30.00000
G01 X6.52780 Y5.51180 F30.00000
G01 X6.60400 Y5.51180 F30.00000
G01 X6.60400 Y5.53720 F30.00000
G01 X9.55040 Y5.53720 F30.00000
G01 X9.55040 Y5.56260 F30.00000
G01 X9.67740 Y5.56260 F30.00000
G01 X9.67740 Y5.68960 F30.00000
G01 X9.70280 Y5.68960 F30.00000
G01 X9.70280 Y12.54760 F30.00000
G01 X10.97280 Y12.54760 F30.00000
G01 X10.97280 Y8.83920 F30.00000
G04 P0 ( dwell for no time -- G64 should not smooth over this point )
G00 Z12.00000 ( retract )

G00 X12.24280 Y8.83920 ( rapid move to begin. )
G01 Z10.00000 F30.00000 ( plunge. )
G04 P0 ( dwell for no time -- G64 should not smooth over this point )
G01 X12.24280 Y8.83920 F30.00000
G01 X12.24280 Y4.41960 F30.00000
G01 X12.21740 Y4.41960 F30.00000
G01 X12.21740 Y4.34340 F30.00000
G01 X12.19200 Y4.34340 F30.00000
G01 X12.19200 Y4.31800 F30.00000
G01 X12.06500 Y4.31800 F30.00000
G01 X12.06500 Y4.29260 F30.00000
G01 X11.58240 Y4.29260 F30.00000
G01 X11.58240 Y4.24180 F30.00000
G01 X11.55700 Y4.24180 F30.00000
G01 X11.55700 Y4.19100 F30.00000
G01 X11.53160 Y4.19100 F30.00000
G01 X11.53160 Y4.14020 F30.00000
G01 X11.50620 Y4.14020 F30.00000
G01 X11.50620 Y4.08940 F30.00000
G01 X11.48080 Y4.08940 F30.00000
G01 X11.48080 Y4.01320 F30.00000
G01 X11.45540 Y4.01320 F30.00000
G01 X11.45540 Y3.96240 F30.00000
G01 X11.43000 Y3.96240 F30.00000
G01 X11.43000 Y3.88620 F30.00000
G01 X11.40460 Y3.88620 F30.00000
G01 X11.40460 Y3.78460 F30.00000
G01 X11.37920 Y3.78460 F30.00000
G01 X11.37920 Y3.68300 F30.00000
G01 X11.35380 Y3.68300 F30.00000
G01 X11.35380 Y3.53060 F30.00000
G01 X11.32840 Y3.53060 F30.00000
G01 X11.32840 Y3.40360 F30.00000
G01 X11.30300 Y3.40360 F30.00000
G01 X11.30300 Y3.30200 F30.00000
G01 X11.27760 Y3.30200 F30.00000
G01 X11.27760 Y3.25120 F30.00000
G01 X11.25220 Y3.25120 F30.00000
G01 X11.25220 Y3.20040 F30.00000
G01 X11.22680 Y3.20040 F30.00000
G01 X11.22680 Y3.17500 F30.00000
G01 X11.20140 Y3.17500 F30.00000
G01 X11.20140 Y3.14960 F30.00000
G01 X11.17600 Y3.14960 F30.00000
G01 X11.17600 Y3.12420 F30.00000
G01 X11.15060 Y3.12420 F30.00000
G01 X11.15060 Y3.09880 F30.00000
G01 X11.12520 Y3.09880 F30.00000
G01 X11.12520 Y3.07340 F30.00000
G01 X11.09980 Y3.07340 F30.00000
G01 X11.09980 Y3.04800 F30.00000
G01 X11.07440 Y3.04800 F30.00000
G01 X11.07440 Y3.02260 F30.00000
G01 X11.04900 Y3.02260 F30.00000
G01 X11.04900 Y2.99720 F30.00000
G01 X11.02360 Y2.99720 F30.00000
G01 X11.02360 Y2.97180 F30.00000
G01 X10.99820 Y2.97180 F30.00000
G01 X10.99820 Y2.94640 F30.00000
G01 X10.97280 Y2.94640 F30.00000
G01 X10.97280 Y0.60960 F30.00000
G01 X8.43280 Y0.60960 F30.00000
G01 X8.43280 Y4.11480 F30.00000
G01 X8.48360 Y4.11480 F30.00000
G01 X8.48360 Y4.14020 F30.00000
G01 X8.55980 Y4.14020 F30.00000
G01 X8.55980 Y4.16560 F30.00000
G01 X8.61060 Y4.16560 F30.00000
G01 X8.61060 Y4.19100 F30.00000
G01 X8.68680 Y4.19100 F30.00000
G01 X8.68680 Y4.21640 F30.00000
G01 X8.78840 Y4.21640 F30.00000
G01 X8.78840 Y4.24180 F30.00000
G01 X8.89000 Y4.24180 F30.00000
G01 X8.89000 Y4.26720 F30.00000
G01 X9.04240 Y4.26720 F30.00000
G01 X9.04240 Y4.29260 F30.00000
G01 X10.36320 Y4.29260 F30.00000
G01 X10.36320 Y4.31800 F30.00000
G01 X10.38860 Y4.31800 F30.00000
G01 X10.38860 Y4.34340 F30.00000
G01 X10.41400 Y4.34340 F30.00000
G01 X10.41400 Y4.36880 F30.00000
G01 X10.43940 Y4.36880 F30.00000
G01 X10.43940 Y4.39420 F30.00000
G01 X10.46480 Y4.39420 F30.00000
G01 X10.46480 Y4.41960 F30.00000
G01 X10.49020 Y4.41960 F30.00000
G01 X10.49020 Y4.44500 F30.00000
G01 X10.51560 Y4.44500 F30.00000
G01 X10.51560 Y4.47040 F30.00000
G01 X10.54100 Y4.47040 F30.00000
G01 X10.54100 Y4.49580 F30.00000
G01 X10.56640 Y4.49580 F30.00000
G01 X10.56640 Y4.54660 F30.00000
G01 X10.59180 Y4.54660 F30.00000
G01 X10.59180 Y4.59740 F30.00000
G01 X10.61720 Y4.59740 F30.00000
G01 X10.61720 Y4.67360 F30.00000
G01 X10.64260 Y4.67360 F30.00000
G01 X10.64260 Y5.08000 F30.00000
G01 X10.66800 Y5.08000 F30.00000
G01 X10.66800 Y5.20700 F30.00000
G01 X10.69340 Y5.20700 F30.00000
G01 X10.69340 Y5.25780 F30.00000
G01 X10.71880 Y5.25780 F30.00000
G01 X10.71880 Y5.30860 F30.00000
G01 X10.74420 Y5.30860 F30.00000
G01 X10.74420 Y5.33400 F30.00000
G01 X10.76960 Y5.33400 F30.00000
G01 X10.76960 Y5.35940 F30.00000
G01 X10.79500 Y5.35940 F30.00000
G01 X10.79500 Y5.38480 F30.00000
G01 X10.82040 Y5.38480 F30.00000
G01 X10.82040 Y5.41020 F30.00000
G01 X10.84580 Y5.41020 F30.00000
G01 X10.84580 Y5.43560 F30.00000
G01 X10.87120 Y5.43560 F30.00000
G01 X10.87120 Y5.46100 F30.00000
G01 X10.89660 Y5.46100 F30.00000
G01 X10.89660 Y5.48640 F30.00000
G01 X10.92200 Y5.48640 F30.00000
G01 X10.92200 Y5.51180 F30.00000
G01 X10.94740 Y5.51180 F30.00000
G01 X10.94740 Y5.53720 F30.00000
G01 X10.97280 Y5.53720 F30.00000
G01 X10.97280 Y12.54760 F30.00000
G01 X12.24280 Y12.54760 F30.00000
G01 X12.24280 Y8.83920 F30.00000
G04 P0 ( dwell for no time -- G64 should not smooth over this point )
G00 Z12.00000 ( retract )

G00 X13.51280 Y8.83920 ( rapid move to begin. )
G01 Z10.00000 F30.00000 ( plunge. )
G04 P0 ( dwell for no time -- G64 should not smooth over this point )
G01 X13.51280 Y8.83920 F30.00000
G01 X13.51280 Y0.60960 F30.00000
G01 X10.97280 Y0.60960 F30.00000
G01 X10.97280 Y2.94640 F30.00000
G01 X10.99820 Y2.94640 F30.00000
G01 X10.99820 Y2.97180 F30.00000
G01 X11.02360 Y2.97180 F30.00000
G01 X11.02360 Y2.99720 F30.00000
G01 X11.04900 Y2.99720 F30.00000
G01 X11.04900 Y3.02260 F30.00000
G01 X11.07440 Y3.02260 F30.00000
G01 X11.07440 Y3.04800 F30.00000
G01 X11.09980 Y3.04800 F30.00000
G01 X11.09980 Y3.07340 F30.00000
G01 X11.12520 Y3.07340 F30.00000
G01 X11.12520 Y3.09880 F30.00000
G01 X11.15060 Y3.09880 F30.00000
G01 X11.15060 Y3.12420 F30.00000
G01 X11.17600 Y3.12420 F30.00000
G01 X11.17600 Y3.14960 F30.00000
G01 X11.20140 Y3.14960 F30.00000
G01 X11.20140 Y3.17500 F30.00000
G01 X11.22680 Y3.17500 F30.00000
G01 X11.22680 Y3.20040 F30.00000
G01 X11.25220 Y3.20040 F30.00000
G01 X11.25220 Y3.25120 F30.00000
G01 X11.27760 Y3.25120 F30.00000
G01 X11.27760 Y3.30200 F30.00000
G01 X11.30300 Y3.30200 F30.00000
G01 X11.30300 Y3.40360 F30.00000
G01 X11.32840 Y3.40360 F30.00000
G01 X11.32840 Y3.53060 F30.00000
G01 X11.35380 Y3.53060 F30.00000
G01 X11.35380 Y3.68300 F30.00000
G01 X11.37920 Y3.68300 F30.00000
G01 X11.37920 Y3.78460 F30.00000
G01 X11.40460 Y3.78460 F30.00000
G01 X11.40460 Y3.88620 F30.00000
G01 X11.43000 Y3.88620 F30.00000
G01 X11.43000 Y3.96240 F30.00000
G01 X11.45540 Y3.96240 F30.00000
G01 X11.45540 Y4.01320 F30.00000
G01 X11.48080 Y4.01320 F30.00000
G01 X11.48080 Y4.08940 F30.00000
G01 X11.50620 Y4.08940 F30.00000
G01 X11.50620 Y4.14020 F30.00000
G01 X11.53160 Y4.14020 F30.00000
G01 X11.53160 Y4.19100 F30.00000
G01 X11.55700 Y4.19100 F30.00000
G01 X11.55700 Y4.24180 F30.00000
G01 X11.58240 Y4.24180 F30.00000
G01 X11.58240 Y4.29260 F30.00000
G01 X12.06500 Y4.29260 F30.00000
G01 X12.06500 Y4.31800 F30.00000
G01 X12.19200 Y4.31800 F30.00000
G01 X12.19200 Y4.34340 F30.00000
G01 X12.21740 Y4.34340 F30.00000
G01 X12.21740 Y4.41960 F30.00000
G01 X12.24280 Y4.41960 F30.00000
G01 X12.24280 Y12.54760 F30.00000
G01 X13.51280 Y12.54760 F30.00000
G01 X13.51280 Y8.83920 F30.00000
G04 P0 ( dwell for no time -- G64 should not smooth over this point )
G00 Z12.00000 ( retract )

G00 X14.78280 Y8.83920 ( rapid move to begin. )
G01 Z10.00000 F30.00000 ( plunge. )
G04 P0 ( dwell for no time -- G64 should not smooth over this point )
G01 X14.78280 Y8.83920 F30.00000
G01 X14.78280 Y4.36880 F30.00000
G01 X14.80820 Y4.36880 F30.00000
G01 X14.80820 Y4.34340 F30.00000
G01 X14.88440 Y4.34340 F30.00000
G01 X14.88440 Y4.31800 F30.00000
G01 X15.31620 Y4.31800 F30.00000
G01 X15.31620 Y4.29260 F30.00000
G01 X15.41780 Y4.29260 F30.00000
G01 X15.41780 Y4.26720 F30.00000
G01 X15.44320 Y4.26720 F30.00000
G01 X15.44320 Y4.24180 F30.00000
G01 X15.46860 Y4.24180 F30.00000
G01 X15.46860 Y4.19100 F30.00000
G01 X15.49400 Y4.19100 F30.00000
G01 X15.49400 Y4.11480 F30.00000
G01 X15.51940 Y4.11480 F30.00000
G01 X15.51940 Y4.06400 F30.00000
G01 X15.54480 Y4.06400 F30.00000
G01 X15.54480 Y4.01320 F30.00000
G01 X15.57020 Y4.01320 F30.00000
G01 X15.57020 Y3.93700 F30.00000
G01 X15.59560 Y3.93700 F30.00000
G01 X15.59560 Y3.83540 F30.00000
G01 X15.62100 Y3.83540 F30.00000
G01 X15.62100 Y3.73380 F30.00000
G01 X15.64640 Y3.73380 F30.00000
G01 X15.64640 Y3.60680 F30.00000
G01 X15.67180 Y3.60680 F30.00000
G01 X15.67180 Y3.42900 F30.00000
G01 X15.69720 Y3.42900 F30.00000
G01 X15.69720 Y3.37820 F30.00000
G01 X15.72260 Y3.37820 F30.00000
G01 X15.72260 Y3.30200 F30.00000
G01 X15.74800 Y3.30200 F30.00000
G01 X15.74800 Y3.25120 F30.00000
G01 X15.77340 Y3.25120 F30.00000
G01 X15.77340 Y3.20040 F30.00000
G01 X15.79880 Y3.20040 F30.00000
G01 X15.79880 Y3.17500 F30.00000
G01 X15.82420 Y3.17500 F30.00000
G01 X15.82420 Y3.14960 F30.00000
G01 X15.84960 Y3.14960 F30.00000
G01 X15.84960 Y3.12420 F30.00000
G01 X15.87500 Y3.12420 F30.00000
G01 X15.87500 Y3.09880 F30.00000
G01 X15.90040 Y3.09880 F30.00000
G01 X15.90040 Y3.07340 F30.00000
G01 X15.92580 Y3.07340 F30.00000
G01 X15.92580 Y3.04800 F30.00000
G01 X15.95120 Y3.04800 F30.00000
G01 X15.95120 Y3.02260 F30.00000
G01 X15.97660 Y3.02260 F30.00000
G01 X15.97660 Y2.99720 F30.00000
G01 X16.00200 Y2.99720 F30.00000
G01 X16.00200 Y2.97180 F30.00000
G01 X16.02740 Y2.97180 F30.00000
G01 X16.02740 Y2.94640 F30.00000
G01 X16.05280 Y2.94640 F30.00000
G01 X16.05280 Y0.60960 F30.00000
G01 X13.51280 Y0.60960 F30.00000
G01 X13.51280 Y12.54760 F30.00000
G01 X14.78280 Y12.54760 F30.00000
G01 X14.78280 Y8.83920 F30.00000
G04 P0 ( dwell for no time -- G64 should not smooth over this point )
G00 Z12.00000 ( retract )

G00 X16.05280 Y8.83920 ( rapid move to begin. )
G01 Z10.00000 F30.00000 ( plunge. )
G04 P0 ( dwell for no time -- G64 should not smooth over this point )
G01 X16.05280 Y8.83920 F30.00000
G01 X16.05280 Y5.63880 F30.00000
G01 X16.07820 Y5.63880 F30.00000
G01 X16.07820 Y5.58800 F30.00000
G01 X16.12900 Y5.58800 F30.00000
G01 X16.12900 Y5.56260 F30.00000
G01 X16.53540 Y5.56260 F30.00000
G01 X16.53540 Y5.53720 F30.00000
G01 X16.66240 Y5.53720 F30.00000
G01 X16.66240 Y5.41020 F30.00000
G01 X16.68780 Y5.41020 F30.00000
G01 X16.68780 Y4.36880 F30.00000
G01 X16.71320 Y4.36880 F30.00000
G01 X16.71320 Y4.34340 F30.00000
G01 X16.78940 Y4.34340 F30.00000
G01 X16.78940 Y4.31800 F30.00000
G01 X17.85620 Y4.31800 F30.00000
G01 X17.85620 Y4.29260 F30.00000
G01 X18.05940 Y4.29260 F30.00000
G01 X18.05940 Y4.26720 F30.00000
G01 X18.16100 Y4.26720 F30.00000
G01 X18.16100 Y4.24180 F30.00000
G01 X18.26260 Y4.24180 F30.00000
G01 X18.26260 Y4.21640 F30.00000
G01 X18.36420 Y4.21640 F30.00000
G01 X18.36420 Y4.19100 F30.00000
G01 X18.44040 Y4.19100 F30.00000
G01 X18.44040 Y4.16560 F30.00000
G01 X18.49120 Y4.16560 F30.00000
G01 X18.49120 Y4.14020 F30.00000
G01 X18.54200 Y4.14020 F30.00000
G01 X18.54200 Y4.11480 F30.00000
G01 X18.59280 Y4.11480 F30.00000
G01 X18.59280 Y0.60960 F30.00000
G01 X16.05280 Y0.60960 F30.00000
G01 X16.05280 Y2.94640 F30.00000
G01 X16.02740 Y2.94640 F30.00000
G01 X16.02740 Y2.97180 F30.00000
G01 X16.00200 Y2.97180 F30.00000
G01 X16.00200 Y2.99720 F30.00000
G01 X15.97660 Y2.99720 F30.00000
G01 X15.97660 Y3.02260 F30.00000
G01 X15.95120 Y3.02260 F30.00000
G01 X15.95120 Y3.04800 F30.00000
G01 X15.92580 Y3.04800 F30.00000
G01 X15.92580 Y3.07340 F30.00000
G01 X15.90040 Y3.07340 F30.00000
G01 X15.90040 Y3.09880 F30.00000
G01 X15.87500 Y3.09880 F30.00000
G01 X15.87500 Y3.12420 F30.00000
G01 X15.84960 Y3.12420 F30.00000
G01 X15.84960 Y3.14960 F30.00000
G01 X15.82420 Y3.14960 F30.00000
G01 X15.82420 Y3.17500 F30.00000
G01 X15.79880 Y3.17500 F30.00000
G01 X15.79880 Y3.20040 F30.00000
G01 X15.77340 Y3.20040 F30.00000
G01 X15.77340 Y3.25120 F30.00000
G01 X15.74800 Y3.25120 F30.00000
G01 X15.74800 Y3.30200 F30.00000
G01 X15.72260 Y3.30200 F30.00000
G01 X15.72260 Y3.37820 F30.00000
G01 X15.69720 Y3.37820 F30.00000
G01 X15.69720 Y3.42900 F30.00000
G01 X15.67180 Y3.42900 F30.00000
G01 X15.67180 Y3.60680 F30.00000
G01 X15.64640 Y3.60680 F30.00000
G01 X15.64640 Y3.73380 F30.00000
G01 X15.62100 Y3.73380 F30.00000
G01 X15.62100 Y3.83540 F30.00000
G01 X15.59560 Y3.83540 F30.00000
G01 X15.59560 Y3.93700 F30.00000
G01 X15.57020 Y3.93700 F30.00000
G01 X15.57020 Y4.01320 F30.00000
G01 X15.54480 Y4.01320 F30.00000
G01 X15.54480 Y4.06400 F30.00000
G01 X15.51940 Y4.06400 F30.00000
G01 X15.51940 Y4.11480 F30.00000
G01 X15.49400 Y4.11480 F30.00000
G01 X15.49400 Y4.19100 F30.00000
G01 X15.46860 Y4.19100 F30.00000
G01 X15.46860 Y4.24180 F30.00000
G01 X15.44320 Y4.24180 F30.00000
G01 X15.44320 Y4.26720 F30.00000
G01 X15.41780 Y4.26720 F30.00000
G01 X15.41780 Y4.29260 F30.00000
G01 X15.31620 Y4.29260 F30.00000
G01 X15.31620 Y4.31800 F30.00000
G01 X14.88440 Y4.31800 F30.00000
G01 X14.88440 Y4.34340 F30.00000
G01 X14.80820 Y4.34340 F30.00000
G01 X14.80820 Y4.36880 F30.00000
G01 X14.78280 Y4.36880 F30.00000
G01 X14.78280 Y12.54760 F30.00000
G01 X16.05280 Y12.54760 F30.00000
G01 X16.05280 Y8.83920 F30.00000
G04 P0 ( dwell for no time -- G64 should not smooth over this point )
G00 Z12.00000 ( retract )

G00 X17.32280 Y8.83920 ( rapid move to begin. )
G01 Z10.00000 F30.00000 ( plunge. )
G04 P0 ( dwell for no time -- G64 should not smooth over this point )
G01 X17.32280 Y8.83920 F30.00000
G01 X17.32280 Y6.70560 F30.00000
G01 X17.34820 Y6.70560 F30.00000
G01 X17.34820 Y6.68020 F30.00000
G01 X17.37360 Y6.68020 F30.00000
G01 X17.37360 Y6.65480 F30.00000
G01 X17.39900 Y6.65480 F30.00000
G01 X17.39900 Y6.62940 F30.00000
G01 X17.42440 Y6.62940 F30.00000
G01 X17.42440 Y6.60400 F30.00000
G01 X17.44980 Y6.60400 F30.00000
G01 X17.44980 Y6.57860 F30.00000
G01 X17.47520 Y6.57860 F30.00000
G01 X17.47520 Y6.55320 F30.00000
G01 X17.50060 Y6.55320 F30.00000
G01 X17.50060 Y6.50240 F30.00000
G01 X17.60220 Y6.50240 F30.00000
G01 X17.60220 Y6.42620 F30.00000
G01 X17.62760 Y6.42620 F30.00000
G01 X17.62760 Y6.01980 F30.00000
G01 X17.65300 Y6.01980 F30.00000
G01 X17.65300 Y5.89280 F30.00000
G01 X17.67840 Y5.89280 F30.00000
G01 X17.67840 Y5.84200 F30.00000
G01 X17.70380 Y5.84200 F30.00000
G01 X17.70380 Y5.79120 F30.00000
G01 X17.72920 Y5.79120 F30.00000
G01 X17.72920 Y5.76580 F30.00000
G01 X17.75460 Y5.76580 F30.00000
G01 X17.75460 Y5.74040 F30.00000
G01 X17.78000 Y5.74040 F30.00000
G01 X17.78000 Y5.71500 F30.00000
G01 X17.80540 Y5.71500 F30.00000
G01 X17.80540 Y5.68960 F30.00000
G01 X17.83080 Y5.68960 F30.00000
G01 X17.83080 Y5.66420 F30.00000
G01 X17.85620 Y5.66420 F30.00000
G01 X17.85620 Y5.63880 F30.00000
G01 X17.88160 Y5.63880 F30.00000
G01 X17.88160 Y5.61340 F30.00000
G01 X17.90700 Y5.61340 F30.00000
G01 X17.90700 Y5.58800 F30.00000
G01 X17.93240 Y5.58800 F30.00000
G01 X17.93240 Y5.56260 F30.00000
G01 X20.34540 Y5.56260 F30.00000
G01 X20.34540 Y5.53720 F30.00000
G01 X20.47240 Y5.53720 F30.00000
G01 X20.47240 Y5.51180 F30.00000
G01 X20.52320 Y5.51180 F30.00000
G01 X20.52320 Y5.48640 F30.00000
G01 X20.57400 Y5.48640 F30.00000
G01 X20.57400 Y5.46100 F30.00000
G01 X20.59940 Y5.46100 F30.00000
G01 X20.59940 Y5.43560 F30.00000
G01 X20.62480 Y5.43560 F30.00000
G01 X20.62480 Y5.41020 F30.00000
G01 X20.65020 Y5.41020 F30.00000
G01 X20.65020 Y5.38480 F30.00000
G01 X20.67560 Y5.38480 F30.00000
G01 X20.67560 Y5.35940 F30.00000
G01 X20.70100 Y5.35940 F30.00000
G01 X20.70100 Y5.33400 F30.00000
G01 X20.72640 Y5.33400 F30.00000
G01 X20.72640 Y5.30860 F30.00000
G01 X20.75180 Y5.30860 F30.00000
G01 X20.75180 Y5.28320 F30.00000
G01 X20.77720 Y5.28320 F30.00000
G01 X20.77720 Y5.25780 F30.00000
G01 X20.80260 Y5.25780 F30.00000
G01 X20.80260 Y5.23240 F30.00000
G01 X20.82800 Y5.23240 F30.00000
G01 X20.82800 Y5.20700 F30.00000
G01 X20.85340 Y5.20700 F30.00000
G01 X20.85340 Y5.18160 F30.00000
G01 X20.87880 Y5.18160 F30.00000
G01 X20.87880 Y5.15620 F30.00000
G01 X20.90420 Y5.15620 F30.00000
G01 X20.90420 Y5.13080 F30.00000
G01 X20.92960 Y5.13080 F30.00000
G01 X20.92960 Y5.10540 F30.00000
G01 X20.95500 Y5.10540 F30.00000
G01 X20.95500 Y5.08000 F30.00000
G01 X20.98040 Y5.08000 F30.00000
G01 X20.98040 Y5.05460 F30.00000
G01 X21.00580 Y5.05460 F30.00000
G01 X21.00580 Y5.02920 F30.00000
G01 X21.03120 Y5.02920 F30.00000
G01 X21.03120 Y5.00380 F30.00000
G01 X21.05660 Y5.00380 F30.00000
G01 X21.05660 Y4.97840 F30.00000
G01 X21.08200 Y4.97840 F30.00000
G01 X21.08200 Y4.95300 F30.00000
G01 X21.10740 Y4.95300 F30.00000
G01 X21.10740 Y4.92760 F30.00000
G01 X21.13280 Y4.92760 F30.00000
G01 X21.13280 Y0.60960 F30.00000
G01 X18.59280 Y0.60960 F30.00000
G01 X18.59280 Y4.11480 F30.00000
G01 X18.54200 Y4.11480 F30.00000
G01 X18.54200 Y4.14020 F30.00000
G01 X18.49120 Y4.14020 F30.00000
G01 X18.49120 Y4.16560 F30.00000
G01 X18.44040 Y4.16560 F30.00000
G01 X18.44040 Y4.19100 F30.00000
G01 X18.36420 Y4.19100 F30.00000
G01 X18.36420 Y4.21640 F30.00000
G01 X18.26260 Y4.21640 F30.00000
G01 X18.26260 Y4.24180 F30.00000
G01 X18.16100 Y4.24180 F30.00000
G01 X18.16100 Y4.26720 F30.00000
G01 X18.05940 Y4.26720 F30.00000
G01 X18.05940 Y4.29260 F30.00000
G01 X17.85620 Y4.29260 F30.00000
G01 X17.85620 Y4.31800 F30.00000
G01 X16.78940 Y4.31800 F30.00000
G01 X16.78940 Y4.34340 F30.00000
G01 X16.71320 Y4.34340 F30.00000
G01 X16.71320 Y4.36880 F30.00000
G01 X16.68780 Y4.36880 F30.00000
G01 X16.68780 Y5.41020 F30.00000
G01 X16.66240 Y5.41020 F30.00000
G01 X16.66240 Y5.53720 F30.00000
G01 X16.53540 Y5.53720 F30.00000
G01 X16.53540 Y5.56260 F30.00000
G01 X16.12900 Y5.56260 F30.00000
G01 X16.12900 Y5.58800 F30.00000
G01 X16.07820 Y5.58800 F30.00000
G01 X16.07820 Y5.63880 F30.00000
G01 X16.05280 Y5.63880 F30.00000
G01 X16.05280 Y12.54760 F30.00000
G01 X20.67560 Y12.54760 F30.00000
G01 X20.67560 Y12.49680 F30.00000
G01 X20.65020 Y12.49680 F30.00000
G01 X20.65020 Y12.47140 F30.00000
G01 X20.62480 Y12.47140 F30.00000
G01 X20.62480 Y12.44600 F30.00000
G01 X20.59940 Y12.44600 F30.00000
G01 X20.59940 Y12.42060 F30.00000
G01 X20.57400 Y12.42060 F30.00000
G01 X20.57400 Y12.39520 F30.00000
G01 X20.54860 Y12.39520 F30.00000
G01 X20.54860 Y12.36980 F30.00000
G01 X20.52320 Y12.36980 F30.00000
G01 X20.52320 Y12.34440 F30.00000
G01 X20.49780 Y12.34440 F30.00000
G01 X20.49780 Y12.31900 F30.00000
G01 X20.47240 Y12.31900 F30.00000
G01 X20.47240 Y12.29360 F30.00000
G01 X20.44700 Y12.29360 F30.00000
G01 X20.44700 Y12.26820 F30.00000
G01 X20.42160 Y12.26820 F30.00000
G01 X20.42160 Y12.24280 F30.00000
G01 X20.39620 Y12.24280 F30.00000
G01 X20.39620 Y12.21740 F30.00000
G01 X20.37080 Y12.21740 F30.00000
G01 X20.37080 Y12.19200 F30.00000
G01 X20.34540 Y12.19200 F30.00000
G01 X20.34540 Y12.16660 F30.00000
G01 X20.32000 Y12.16660 F30.00000
G01 X20.32000 Y12.14120 F30.00000
G01 X20.29460 Y12.14120 F30.00000
G01 X20.29460 Y12.11580 F30.00000
G01 X20.26920 Y12.11580 F30.00000
G01 X20.26920 Y12.09040 F30.00000
G01 X20.24380 Y12.09040 F30.00000
G01 X20.24380 Y12.06500 F30.00000
G01 X20.21840 Y12.06500 F30.00000
G01 X20.21840 Y12.03960 F30.00000
G01 X20.19300 Y12.03960 F30.00000
G01 X20.19300 Y12.01420 F30.00000
G01 X20.16760 Y12.01420 F30.00000
G01 X20.16760 Y11.98880 F30.00000
G01 X20.14220 Y11.98880 F30.00000
G01 X20.14220 Y11.96340 F30.00000
G01 X20.11680 Y11.96340 F30.00000
G01 X20.11680 Y11.93800 F30.00000
G01 X20.09140 Y11.93800 F30.00000
G01 X20.09140 Y11.91260 F30.00000
G01 X20.06600 Y11.91260 F30.00000
G01 X20.06600 Y11.88720 F30.00000
G01 X20.04060 Y11.88720 F30.00000
G01 X20.04060 Y11.86180 F30.00000
G01 X20.01520 Y11.86180 F30.00000
G01 X20.01520 Y11.83640 F30.00000
G01 X19.98980 Y11.83640 F30.00000
G01 X19.98980 Y11.81100 F30.00000
G01 X19.96440 Y11.81100 F30.00000
G01 X19.96440 Y11.78560 F30.00000
G01 X19.93900 Y11.78560 F30.00000
G01 X19.93900 Y11.76020 F30.00000
G01 X19.91360 Y11.76020 F30.00000
G01 X19.91360 Y11.73480 F30.00000
G01 X19.88820 Y11.73480 F30.00000
G01 X19.88820 Y11.70940 F30.00000
G01 X19.86280 Y11.70940 F30.00000
G01 X19.86280 Y11.68400 F30.00000
G01 X19.83740 Y11.68400 F30.00000
G01 X19.83740 Y11.65860 F30.00000
G01 X19.81200 Y11.65860 F30.00000
G01 X19.81200 Y11.63320 F30.00000
G01 X19.78660 Y11.63320 F30.00000
G01 X19.78660 Y11.60780 F30.00000
G01 X19.76120 Y11.60780 F30.00000
G01 X19.76120 Y11.58240 F30.00000
G01 X19.73580 Y11.58240 F30.00000
G01 X19.73580 Y11.55700 F30.00000
G01 X19.71040 Y11.55700 F30.00000
G01 X19.71040 Y11.53160 F30.00000
G01 X19.68500 Y11.53160 F30.00000
G01 X19.68500 Y11.50620 F30.00000
G01 X19.65960 Y11.50620 F30.00000
G01 X19.65960 Y11.48080 F30.00000
G01 X19.63420 Y11.48080 F30.00000
G01 X19.63420 Y11.45540 F30.00000
G01 X19.60880 Y11.45540 F30.00000
G01 X19.60880 Y11.43000 F30.00000
G01 X19.58340 Y11.43000 F30.00000
G01 X19.58340 Y11.40460 F30.00000
G01 X19.55800 Y11.40460 F30.00000
G01 X19.55800 Y11.37920 F30.00000
G01 X19.53260 Y11.37920 F30.00000
G01 X19.53260 Y11.35380 F30.00000
G01 X19.50720 Y11.35380 F30.00000
G01 X19.50720 Y11.32840 F30.00000
G01 X19.48180 Y11.32840 F30.00000
G01 X19.48180 Y11.30300 F30.00000
G01 X19.45640 Y11.30300 F30.00000
G01 X19.45640 Y11.27760 F30.00000
G01 X19.43100 Y11.27760 F30.00000
G01 X19.43100 Y11.25220 F30.00000
G01 X19.40560 Y11.25220 F30.00000
G01 X19.40560 Y11.22680 F30.00000
G01 X19.38020 Y11.22680 F30.00000
G01 X19.38020 Y11.20140 F30.00000
G01 X19.35480 Y11.20140 F30.00000
G01 X19.35480 Y11.17600 F30.00000
G01 X19.32940 Y11.17600 F30.00000
G01 X19.32940 Y11.15060 F30.00000
G01 X19.30400 Y11.15060 F30.00000
G01 X19.30400 Y11.12520 F30.00000
G01 X19.27860 Y11.12520 F30.00000
G01 X19.27860 Y11.09980 F30.00000
G01 X19.25320 Y11.09980 F30.00000
G01 X19.25320 Y11.07440 F30.00000
G01 X19.22780 Y11.07440 F30.00000
G01 X19.22780 Y11.04900 F30.00000
G01 X19.20240 Y11.04900 F30.00000
G01 X19.20240 Y11.02360 F30.00000
G01 X19.17700 Y11.02360 F30.00000
G01 X19.17700 Y10.99820 F30.00000
G01 X19.15160 Y10.99820 F30.00000
G01 X19.15160 Y10.97280 F30.00000
G01 X19.12620 Y10.97280 F30.00000
G01 X19.12620 Y10.94740 F30.00000
G01 X19.10080 Y10.94740 F30.00000
G01 X19.10080 Y10.92200 F30.00000
G01 X19.07540 Y10.92200 F30.00000
G01 X19.07540 Y10.89660 F30.00000
G01 X19.05000 Y10.89660 F30.00000
G01 X19.05000 Y10.87120 F30.00000
G01 X19.02460 Y10.87120 F30.00000
G01 X19.02460 Y10.84580 F30.00000
G01 X18.99920 Y10.84580 F30.00000
G01 X18.99920 Y10.82040 F30.00000
G01 X18.97380 Y10.82040 F30.00000
G01 X18.97380 Y10.79500 F30.00000
G01 X18.94840 Y10.79500 F30.00000
G01 X18.94840 Y10.76960 F30.00000
G01 X18.92300 Y10.76960 F30.00000
G01 X18.92300 Y10.74420 F30.00000
G01 X18.89760 Y10.74420 F30.00000
G01 X18.89760 Y10.71880 F30.00000
G01 X18.87220 Y10.71880 F30.00000
G01 X18.87220 Y10.69340 F30.00000
G01 X18.84680 Y10.69340 F30.00000
G01 X18.84680 Y10.66800 F30.00000
G01 X18.82140 Y10.66800 F30.00000
G01 X18.82140 Y10.64260 F30.00000
G01 X18.79600 Y10.64260 F30.00000
G01 X18.79600 Y10.61720 F30.00000
G01 X18.77060 Y10.61720 F30.00000
G01 X18.77060 Y10.59180 F30.00000
G01 X18.74520 Y10.59180 F30.00000
G01 X18.74520 Y10.56640 F30.00000
G01 X18.71980 Y10.56640 F30.00000
G01 X18.71980 Y10.54100 F30.00000
G01 X18.69440 Y10.54100 F30.00000
G01 X18.69440 Y10.51560 F30.00000
G01 X18.66900 Y10.51560 F30.00000
G01 X18.66900 Y10.49020 F30.00000
G01 X18.64360 Y10.49020 F30.00000
G01 X18.64360 Y10.46480 F30.00000
G01 X18.61820 Y10.46480 F30.00000
G01 X18.61820 Y10.43940 F30.00000
G01 X18.59280 Y10.43940 F30.00000
G01 X18.59280 Y10.38860 F30.00000
G01 X18.54200 Y10.38860 F30.00000
G01 X18.54200 Y10.36320 F30.00000
G01 X18.51660 Y10.36320 F30.00000
G01 X18.51660 Y10.33780 F30.00000
G01 X18.49120 Y10.33780 F30.00000
G01 X18.49120 Y10.31240 F30.00000
G01 X18.46580 Y10.31240 F30.00000
G01 X18.46580 Y10.28700 F30.00000
G01 X18.44040 Y10.28700 F30.00000
G01 X18.44040 Y10.26160 F30.00000
G01 X18.41500 Y10.26160 F30.00000
G01 X18.41500 Y10.23620 F30.00000
G01 X18.38960 Y10.23620 F30.00000
G01 X18.38960 Y10.21080 F30.00000
G01 X18.36420 Y10.21080 F30.00000
G01 X18.36420 Y10.18540 F30.00000
G01 X18.33880 Y10.18540 F30.00000
G01 X18.33880 Y10.16000 F30.00000
G01 X18.31340 Y10.16000 F30.00000
G01 X18.31340 Y10.13460 F30.00000
G01 X18.28800 Y10.13460 F30.00000
G01 X18.28800 Y10.10920 F30.00000
G01 X18.26260 Y10.10920 F30.00000
G01 X18.26260 Y10.08380 F30.00000
G01 X18.23720 Y10.08380 F30.00000
G01 X18.23720 Y10.05840 F30.00000
G01 X18.21180 Y10.05840 F30.00000
G01 X18.21180 Y10.03300 F30.00000
G01 X18.18640 Y10.03300 F30.00000
G01 X18.18640 Y10.00760 F30.00000
G01 X18.16100 Y10.00760 F30.00000
G01 X18.16100 Y9.98220 F30.00000
G01 X18.13560 Y9.98220 F30.00000
G01 X18.13560 Y9.95680 F30.00000
G01 X18.11020 Y9.95680 F30.00000
G01 X18.11020 Y9.93140 F30.00000
G01 X18.08480 Y9.93140 F30.00000
G01 X18.08480 Y9.90600 F30.00000
G01 X18.05940 Y9.90600 F30.00000
G01 X18.05940 Y9.88060 F30.00000
G01 X18.03400 Y9.88060 F30.00000
G01 X18.03400 Y9.85520 F30.00000
G01 X18.00860 Y9.85520 F30.00000
G01 X18.00860 Y9.82980 F30.00000
G01 X17.98320 Y9.82980 F30.00000
G01 X17.98320 Y9.80440 F30.00000
G01 X17.95780 Y9.80440 F30.00000
G01 X17.95780 Y9.77900 F30.00000
G01 X17.93240 Y9.77900 F30.00000
G01 X17.93240 Y9.75360 F30.00000
G01 X17.90700 Y9.75360 F30.00000
G01 X17.90700 Y9.72820 F30.00000
G01 X17.88160 Y9.72820 F30.00000
G01 X17.88160 Y9.70280 F30.00000
G01 X17.85620 Y9.70280 F30.00000
G01 X17.85620 Y9.67740 F30.00000
G01 X17.83080 Y9.67740 F30.00000
G01 X17.83080 Y9.65200 F30.00000
G01 X17.80540 Y9.65200 F30.00000
G01 X17.80540 Y9.62660 F30.00000
G01 X17.78000 Y9.62660 F30.00000
G01 X17.78000 Y9.60120 F30.00000
G01 X17.75460 Y9.60120 F30.00000
G01 X17.75460 Y9.57580 F30.00000
G01 X17.72920 Y9.57580 F30.00000
G01 X17.72920 Y9.55040 F30.00000
G01 X17.70380 Y9.55040 F30.00000
G01 X17.70380 Y9.52500 F30.00000
G01 X17.67840 Y9.52500 F30.00000
G01 X17.67840 Y9.49960 F30.00000
G01 X17.65300 Y9.49960 F30.00000
G01 X17.65300 Y9.47420 F30.00000
G01 X17.62760 Y9.47420 F30.00000
G01 X17.62760 Y9.44880 F30.00000
G01 X17.60220 Y9.44880 F30.00000
G01 X17.60220 Y9.42340 F30.00000
G01 X17.57680 Y9.42340 F30.00000
G01 X17.57680 Y9.39800 F30.00000
G01 X17.55140 Y9.39800 F30.00000
G01 X17.55140 Y9.37260 F30.00000
G01 X17.52600 Y9.37260 F30.00000
G01 X17.52600 Y9.34720 F30.00000
G01 X17.50060 Y9.34720 F30.00000
G01 X17.50060 Y9.32180 F30.00000
G01 X17.47520 Y9.32180 F30.00000
G01 X17.47520 Y9.29640 F30.00000
G01 X17.44980 Y9.29640 F30.00000
G01 X17.44980 Y9.27100 F30.00000
G01 X17.42440 Y9.27100 F30.00000
G01 X17.42440 Y9.24560 F30.00000
G01 X17.39900 Y9.24560 F30.00000
G01 X17.39900 Y9.22020 F30.00000
G01 X17.37360 Y9.22020 F30.00000
G01 X17.37360 Y9.19480 F30.00000
G01 X17.34820 Y9.19480 F30.00000
G01 X17.34820 Y9.16940 F30.00000
G01 X17.32280 Y9.16940 F30.00000
G01 X17.32280 Y8.83920 F30.00000
G04 P0 ( dwell for no time -- G64 should not smooth over this point )
G00 Z12.00000 ( retract )

G00 X18.59280 Y8.81380 ( rapid move to begin. )
G01 Z10.00000 F30.00000 ( plunge. )
G04 P0 ( dwell for no time -- G64 should not smooth over this point )
G01 X18.59280 Y8.81380 F30.00000
G01 X18.59280 Y6.70560 F30.00000
G01 X18.61820 Y6.70560 F30.00000
G01 X18.61820 Y6.68020 F30.00000
G01 X18.64360 Y6.68020 F30.00000
G01 X18.64360 Y6.65480 F30.00000
G01 X18.66900 Y6.65480 F30.00000
G01 X18.66900 Y6.62940 F30.00000
G01 X18.69440 Y6.62940 F30.00000
G01 X18.69440 Y6.60400 F30.00000
G01 X18.71980 Y6.60400 F30.00000
G01 X18.71980 Y6.57860 F30.00000
G01 X18.74520 Y6.57860 F30.00000
G01 X18.74520 Y6.55320 F30.00000
G01 X18.77060 Y6.55320 F30.00000
G01 X18.77060 Y6.52780 F30.00000
G01 X19.65960 Y6.52780 F30.00000
G01 X19.65960 Y6.55320 F30.00000
G01 X19.68500 Y6.55320 F30.00000
G01 X19.68500 Y6.57860 F30.00000
G01 X19.71040 Y6.57860 F30.00000
G01 X19.71040 Y6.60400 F30.00000
G01 X19.73580 Y6.60400 F30.00000
G01 X19.73580 Y6.62940 F30.00000
G01 X19.76120 Y6.62940 F30.00000
G01 X19.76120 Y6.65480 F30.00000
G01 X19.78660 Y6.65480 F30.00000
G01 X19.78660 Y6.68020 F30.00000
G01 X19.81200 Y6.68020 F30.00000
G01 X19.81200 Y6.70560 F30.00000
G01 X19.83740 Y6.70560 F30.00000
G01 X19.83740 Y6.73100 F30.00000
G01 X19.86280 Y6.73100 F30.00000
G01 X19.86280 Y6.75640 F30.00000
G01 X19.88820 Y6.75640 F30.00000
G01 X19.88820 Y6.78180 F30.00000
G01 X19.91360 Y6.78180 F30.00000
G01 X19.91360 Y6.80720 F30.00000
G01 X19.93900 Y6.80720 F30.00000
G01 X19.93900 Y6.83260 F30.00000
G01 X22.88540 Y6.83260 F30.00000
G01 X22.88540 Y6.80720 F30.00000
G01 X23.01240 Y6.80720 F30.00000
G01 X23.01240 Y6.78180 F30.00000
G01 X23.06320 Y6.78180 F30.00000
G01 X23.06320 Y6.75640 F30.00000
G01 X23.11400 Y6.75640 F30.00000
G01 X23.11400 Y6.73100 F30.00000
G01 X23.13940 Y6.73100 F30.00000
G01 X23.13940 Y6.70560 F30.00000
G01 X23.16480 Y6.70560 F30.00000
G01 X23.16480 Y6.68020 F30.00000
G01 X23.19020 Y6.68020 F30.00000
G01 X23.19020 Y6.65480 F30.00000
G01 X23.21560 Y6.65480 F30.00000
G01 X23.21560 Y6.62940 F30.00000
G01 X23.24100 Y6.62940 F30.00000
G01 X23.24100 Y6.60400 F30.00000
G01 X23.26640 Y6.60400 F30.00000
G01 X23.26640 Y6.57860 F30.00000
G01 X23.29180 Y6.57860 F30.00000
G01 X23.29180 Y6.55320 F30.00000
G01 X23.31720 Y6.55320 F30.00000
G01 X23.31720 Y6.52780 F30.00000
G01 X23.34260 Y6.52780 F30.00000
G01 X23.34260 Y6.50240 F30.00000
G01 X23.36800 Y6.50240 F30.00000
G01 X23.36800 Y6.47700 F30.00000
G01 X23.39340 Y6.47700 F30.00000
G01 X23.39340 Y6.45160 F30.00000
G01 X23.41880 Y6.45160 F30.00000
G01 X23.41880 Y6.42620 F30.00000
G01 X23.44420 Y6.42620 F30.00000
G01 X23.44420 Y6.40080 F30.00000
G01 X23.46960 Y6.40080 F30.00000
G01 X23.46960 Y6.37540 F30.00000
G01 X23.49500 Y6.37540 F30.00000
G01 X23.49500 Y6.35000 F30.00000
G01 X23.52040 Y6.35000 F30.00000
G01 X23.52040 Y6.32460 F30.00000
G01 X23.54580 Y6.32460 F30.00000
G01 X23.54580 Y6.29920 F30.00000
G01 X23.57120 Y6.29920 F30.00000
G01 X23.57120 Y6.27380 F30.00000
G01 X23.59660 Y6.27380 F30.00000
G01 X23.59660 Y6.24840 F30.00000
G01 X23.62200 Y6.24840 F30.00000
G01 X23.62200 Y6.22300 F30.00000
G01 X23.64740 Y6.22300 F30.00000
G01 X23.64740 Y6.19760 F30.00000
G01 X23.67280 Y6.19760 F30.00000
G01 X23.67280 Y0.60960 F30.00000
G01 X21.13280 Y0.60960 F30.00000
G01 X21.13280 Y4.92760 F30.00000
G01 X21.10740 Y4.92760 F30.00000
G01 X21.10740 Y4.95300 F30.00000
G01 X21.08200 Y4.95300 F30.00000
G01 X21.08200 Y4.97840 F30.00000
G01 X21.05660 Y4.97840 F30.00000
G01 X21.05660 Y5.00380 F30.00000
G01 X21.03120 Y5.00380 F30.00000
G01 X21.03120 Y5.02920 F30.00000
G01 X21.00580 Y5.02920 F30.00000
G01 X21.00580 Y5.05460 F30.00000
G01 X20.98040 Y5.05460 F30.00000
G01 X20.98040 Y5.08000 F30.00000
G01 X20.95500 Y5.08000 F30.00000
G01 X20.95500 Y5.10540 F30.00000
G01 X20.92960 Y5.10540 F30.00000
G01 X20.92960 Y5.13080 F30.00000
G01 X20.90420 Y5.13080 F30.00000
G01 X20.90420 Y5.15620 F30.00000
G01 X20.87880 Y5.15620 F30.00000
G01 X20.87880 Y5.18160 F30.00000
G01 X20.85340 Y5.18160 F30.00000
G01 X20.85340 Y5.20700 F30.00000
G01 X20.82800 Y5.20700 F30.00000
G01 X20.82800 Y5.23240 F30.00000
G01 X20.80260 Y5.23240 F30.00000
G01 X20.80260 Y5.25780 F30.00000
G01 X20.77720 Y5.25780 F30.00000
G01 X20.77720 Y5.28320 F30.00000
G01 X20.75180 Y5.28320 F30.00000
G01 X20.75180 Y5.30860 F30.00000
G01 X20.72640 Y5.30860 F30.00000
G01 X20.72640 Y5.33400 F30.00000
G01 X20.70100 Y5.33400 F30.00000
G01 X20.70100 Y5.35940 F30.00000
G01 X20.67560 Y5.35940 F30.00000
G01 X20.67560 Y5.38480 F30.00000
G01 X20.65020 Y5.38480 F30.00000
G01 X20.65020 Y5.41020 F30.00000
G01 X20.62480 Y5.41020 F30.00000
G01 X20.62480 Y5.43560 F30.00000
G01 X20.59940 Y5.43560 F30.00000
G01 X20.59940 Y5.46100 F30.00000
G01 X20.57400 Y5.46100 F30.00000
G01 X20.57400 Y5.48640 F30.00000
G01 X20.52320 Y5.48640 F30.00000
G01 X20.52320 Y5.51180 F30.00000
G01 X20.47240 Y5.51180 F30.00000
G01 X20.47240 Y5.53720 F30.00000
G01 X20.34540 Y5.53720 F30.00000
G01 X20.34540 Y5.56260 F30.00000
G01 X17.93240 Y5.56260 F30.00000
G01 X17.93240 Y5.58800 F30.00000
G01 X17.90700 Y5.58800 F30.00000
G01 X17.90700 Y5.61340 F30.00000
G01 X17.88160 Y5.61340 F30.00000
G01 X17.88160 Y5.63880 F30.00000
G01 X17.85620 Y5.63880 F30.00000
G01 X17.85620 Y5.66420 F30.00000
G01 X17.83080 Y5.66420 F30.00000
G01 X17.83080 Y5.68960 F30.00000
G01 X17.80540 Y5.68960 F30.00000
G01 X17.80540 Y5.71500 F30.00000
G01 X17.78000 Y5.71500 F30.00000
G01 X17.78000 Y5.74040 F30.00000
G01 X17.75460 Y5.74040 F30.00000
G01 X17.75460 Y5.76580 F30.00000
G01 X17.72920 Y5.76580 F30.00000
G01 X17.72920 Y5.79120 F30.00000
G01 X17.70380 Y5.79120 F30.00000
G01 X17.70380 Y5.84200 F30.00000
G01 X17.67840 Y5.84200 F30.00000
G01 X17.67840 Y5.89280 F30.00000
G01 X17.65300 Y5.89280 F30.00000
G01 X17.65300 Y6.01980 F30.00000
G01 X17.62760 Y6.01980 F30.00000
G01 X17.62760 Y6.42620 F30.00000
G01 X17.60220 Y6.42620 F30.00000
G01 X17.60220 Y6.50240 F30.00000
G01 X17.50060 Y6.50240 F30.00000
G01 X17.50060 Y6.55320 F30.00000
G01 X17.47520 Y6.55320 F30.00000
G01 X17.47520 Y6.57860 F30.00000
G01 X17.44980 Y6.57860 F30.00000
G01 X17.44980 Y6.60400 F30.00000
G01 X17.42440 Y6.60400 F30.00000
G01 X17.42440 Y6.62940 F30.00000
G01 X17.39900 Y6.62940 F30.00000
G01 X17.39900 Y6.65480 F30.00000
G01 X17.37360 Y6.65480 F30.00000
G01 X17.37360 Y6.68020 F30.00000
G01 X17.34820 Y6.68020 F30.00000
G01 X17.34820 Y6.70560 F30.00000
G01 X17.32280 Y6.70560 F30.00000
G01 X17.32280 Y9.16940 F30.00000
G01 X17.34820 Y9.16940 F30.00000
G01 X17.34820 Y9.19480 F30.00000
G01 X17.37360 Y9.19480 F30.00000
G01 X17.37360 Y9.22020 F30.00000
G01 X17.39900 Y9.22020 F30.00000
G01 X17.39900 Y9.24560 F30.00000
G01 X17.42440 Y9.24560 F30.00000
G01 X17.42440 Y9.27100 F30.00000
G01 X17.44980 Y9.27100 F30.00000
G01 X17.44980 Y9.29640 F30.00000
G01 X17.47520 Y9.29640 F30.00000
G01 X17.47520 Y9.32180 F30.00000
G01 X17.50060 Y9.32180 F30.00000
G01 X17.50060 Y9.34720 F30.00000
G01 X17.52600 Y9.34720 F30.00000
G01 X17.52600 Y9.37260 F30.00000
G01 X17.55140 Y9.37260 F30.00000
G01 X17.55140 Y9.39800 F30.00000
G01 X17.57680 Y9.39800 F30.00000
G01 X17.57680 Y9.42340 F30.00000
G01 X17.60220 Y9.42340 F30.00000
G01 X17.60220 Y9.44880 F30.00000
G01 X17.62760 Y9.44880 F30.00000
G01 X17.62760 Y9.47420 F30.00000
G01 X17.65300 Y9.47420 F30.00000
G01 X17.65300 Y9.49960 F30.00000
G01 X17.67840 Y9.49960 F30.00000
G01 X17.67840 Y9.52500 F30.00000
G01 X17.70380 Y9.52500 F30.00000
G01 X17.70380 Y9.55040 F30.00000
G01 X17.72920 Y9.55040 F30.00000
G01 X17.72920 Y9.57580 F30.00000
G01 X17.75460 Y9.57580 F30.00000
G01 X17.75460 Y9.60120 F30.00000
G01 X17.78000 Y9.60120 F30.00000
G01 X17.78000 Y9.62660 F30.00000
G01 X17.80540 Y9.62660 F30.00000
G01 X17.80540 Y9.65200 F30.00000
G01 X17.83080 Y9.65200 F30.00000
G01 X17.83080 Y9.67740 F30.00000
G01 X17.85620 Y9.67740 F30.00000
G01 X17.85620 Y9.70280 F30.00000
G01 X17.88160 Y9.70280 F30.00000
G01 X17.88160 Y9.72820 F30.00000
G01 X17.90700 Y9.72820 F30.00000
G01 X17.90700 Y9.75360 F30.00000
G01 X17.93240 Y9.75360 F30.00000
G01 X17.93240 Y9.77900 F30.00000
G01 X17.95780 Y9.77900 F30.00000
G01 X17.95780 Y9.80440 F30.00000
G01 X17.98320 Y9.80440 F30.00000
G01 X17.98320 Y9.82980 F30.00000
G01 X18.00860 Y9.82980 F30.00000
G01 X18.00860 Y9.85520 F30.00000
G01 X18.03400 Y9.85520 F30.00000
G01 X18.03400 Y9.88060 F30.00000
G01 X18.05940 Y9.88060 F30.00000
G01 X18.05940 Y9.90600 F30.00000
G01 X18.08480 Y9.90600 F30.00000
G01 X18.08480 Y9.93140 F30.00000
G01 X18.11020 Y9.93140 F30.00000
G01 X18.11020 Y9.95680 F30.00000
G01 X18.13560 Y9.95680 F30.00000
G01 X18.13560 Y9.98220 F30.00000
G01 X18.16100 Y9.98220 F30.00000
G01 X18.16100 Y10.00760 F30.00000
G01 X18.18640 Y10.00760 F30.00000
G01 X18.18640 Y10.03300 F30.00000
G01 X18.21180 Y10.03300 F30.00000
G01 X18.21180 Y10.05840 F30.00000
G01 X18.23720 Y10.05840 F30.00000
G01 X18.23720 Y10.08380 F30.00000
G01 X18.26260 Y10.08380 F30.00000
G01 X18.26260 Y10.10920 F30.00000
G01 X18.28800 Y10.10920 F30.00000
G01 X18.28800 Y10.13460 F30.00000
G01 X18.31340 Y10.13460 F30.00000
G01 X18.31340 Y10.16000 F30.00000
G01 X18.33880 Y10.16000 F30.00000
G01 X18.33880 Y10.18540 F30.00000
G01 X18.36420 Y10.18540 F30.00000
G01 X18.36420 Y10.21080 F30.00000
G01 X18.38960 Y10.21080 F30.00000
G01 X18.38960 Y10.23620 F30.00000
G01 X18.41500 Y10.23620 F30.00000
G01 X18.41500 Y10.26160 F30.00000
G01 X18.44040 Y10.26160 F30.00000
G01 X18.44040 Y10.28700 F30.00000
G01 X18.46580 Y10.28700 F30.00000
G01 X18.46580 Y10.31240 F30.00000
G01 X18.49120 Y10.31240 F30.00000
G01 X18.49120 Y10.33780 F30.00000
G01 X18.51660 Y10.33780 F30.00000
G01 X18.51660 Y10.36320 F30.00000
G01 X18.54200 Y10.36320 F30.00000
G01 X18.54200 Y10.38860 F30.00000
G01 X18.59280 Y10.38860 F30.00000
G01 X18.59280 Y8.81380 F30.00000
G04 P0 ( dwell for no time -- G64 should not smooth over this point )
G00 Z12.00000 ( retract )

G00 X25.93340 Y8.81380 ( rapid move to begin. )
G01 Z10.00000 F30.00000 ( plunge. )
G04 P0 ( dwell for no time -- G64 should not smooth over this point )
G01 X25.93340 Y8.81380 F30.00000
G01 X25.93340 Y0.60960 F30.00000
G01 X23.67280 Y0.60960 F30.00000
G01 X23.67280 Y6.19760 F30.00000
G01 X23.64740 Y6.19760 F30.00000
G01 X23.64740 Y6.22300 F30.00000
G01 X23.62200 Y6.22300 F30.00000
G01 X23.62200 Y6.24840 F30.00000
G01 X23.59660 Y6.24840 F30.00000
G01 X23.59660 Y6.27380 F30.00000
G01 X23.57120 Y6.27380 F30.00000
G01 X23.57120 Y6.29920 F30.00000
G01 X23.54580 Y6.29920 F30.00000
G01 X23.54580 Y6.32460 F30.00000
G01 X23.52040 Y6.32460 F30.00000
G01 X23.52040 Y6.35000 F30.00000
G01 X23.49500 Y6.35000 F30.00000
G01 X23.49500 Y6.37540 F30.00000
G01 X23.46960 Y6.37540 F30.00000
G01 X23.46960 Y6.40080 F30.00000
G01 X23.44420 Y6.40080 F30.00000
G01 X23.44420 Y6.42620 F30.00000
G01 X23.41880 Y6.42620 F30.00000
G01 X23.41880 Y6.45160 F30.00000
G01 X23.39340 Y6.45160 F30.00000
G01 X23.39340 Y6.47700 F30.00000
G01 X23.36800 Y6.47700 F30.00000
G01 X23.36800 Y6.50240 F30.00000
G01 X23.34260 Y6.50240 F30.00000
G01 X23.34260 Y6.52780 F30.00000
G01 X23.31720 Y6.52780 F30.00000
G01 X23.31720 Y6.55320 F30.00000
G01 X23.29180 Y6.55320 F30.00000
G01 X23.29180 Y6.57860 F30.00000
G01 X23.26640 Y6.57860 F30.00000
G01 X23.26640 Y6.60400 F30.00000
G01 X23.24100 Y6.60400 F30.00000
G01 X23.24100 Y6.62940 F30.00000
G01 X23.21560 Y6.62940 F30.00000
G01 X23.21560 Y6.65480 F30.00000
G01 X23.19020 Y6.65480 F30.00000
G01 X23.19020 Y6.68020 F30.00000
G01 X23.16480 Y6.68020 F30.00000
G01 X23.16480 Y6.70560 F30.00000
G01 X23.13940 Y6.70560 F30.00000
G01 X23.13940 Y6.73100 F30.00000
G01 X23.11400 Y6.73100 F30.00000
G01 X23.11400 Y6.75640 F30.00000
G01 X23.06320 Y6.75640 F30.00000
G01 X23.06320 Y6.78180 F30.00000
G01 X23.01240 Y6.78180 F30.00000
G01 X23.01240 Y6.80720 F30.00000
G01 X22.88540 Y6.80720 F30.00000
G01 X22.88540 Y6.83260 F30.00000
G01 X19.93900 Y6.83260 F30.00000
G01 X19.93900 Y6.80720 F30.00000
G01 X19.91360 Y6.80720 F30.00000
G01 X19.91360 Y6.78180 F30.00000
G01 X19.88820 Y6.78180 F30.00000
G01 X19.88820 Y6.75640 F30.00000
G01 X19.86280 Y6.75640 F30.00000
G01 X19.86280 Y6.73100 F30.00000
G01 X19.83740 Y6.73100 F30.00000
G01 X19.83740 Y6.70560 F30.00000
G01 X19.81200 Y6.70560 F30.00000
G01 X19.81200 Y6.68020 F30.00000
G01 X19.78660 Y6.68020 F30.00000
G01 X19.78660 Y6.65480 F30.00000
G01 X19.76120 Y6.65480 F30.00000
G01 X19.76120 Y6.62940 F30.00000
G01 X19.73580 Y6.62940 F30.00000
G01 X19.73580 Y6.60400 F30.00000
G01 X19.71040 Y6.60400 F30.00000
G01 X19.71040 Y6.57860 F30.00000
G01 X19.68500 Y6.57860 F30.00000
G01 X19.68500 Y6.55320 F30.00000
G01 X19.65960 Y6.55320 F30.00000
G01 X19.65960 Y6.52780 F30.00000
G01 X18.77060 Y6.52780 F30.00000
G01 X18.77060 Y6.55320 F30.00000
G01 X18.74520 Y6.55320 F30.00000
G01 X18.74520 Y6.57860 F30.00000
G01 X18.71980 Y6.57860 F30.00000
G01 X18.71980 Y6.60400 F30.00000
G01 X18.69440 Y6.60400 F30.00000
G01 X18.69440 Y6.62940 F30.00000
G01 X18.66900 Y6.62940 F30.00000
G01 X18.66900 Y6.65480 F30.00000
G01 X18.64360 Y6.65480 F30.00000
G01 X18.64360 Y6.68020 F30.00000
G01 X18.61820 Y6.68020 F30.00000
G01 X18.61820 Y6.70560 F30.00000
G01 X18.59280 Y6.70560 F30.00000
G01 X18.59280 Y10.43940 F30.00000
G01 X18.61820 Y10.43940 F30.00000
G01 X18.61820 Y10.46480 F30.00000
G01 X18.64360 Y10.46480 F30.00000
G01 X18.64360 Y10.49020 F30.00000
G01 X18.66900 Y10.49020 F30.00000
G01 X18.66900 Y10.51560 F30.00000
G01 X18.69440 Y10.51560 F30.00000
G01 X18.69440 Y10.54100 F30.00000
G01 X18.71980 Y10.54100 F30.00000
G01 X18.71980 Y10.56640 F30.00000
G01 X18.74520 Y10.56640 F30.00000
G01 X18.74520 Y10.59180 F30.00000
G01 X18.77060 Y10.59180 F30.00000
G01 X18.77060 Y10.61720 F30.00000
G01 X18.79600 Y10.61720 F30.00000
G01 X18.79600 Y10.64260 F30.00000
G01 X18.82140 Y10.64260 F30.00000
G01 X18.82140 Y10.66800 F30.00000
G01 X18.84680 Y10.66800 F30.00000
G01 X18.84680 Y10.69340 F30.00000
G01 X18.87220 Y10.69340 F30.00000
G01 X18.87220 Y10.71880 F30.00000
G01 X18.89760 Y10.71880 F30.00000
G01 X18.89760 Y10.74420 F30.00000
G01 X18.92300 Y10.74420 F30.00000
G01 X18.92300 Y10.76960 F30.00000
G01 X18.94840 Y10.76960 F30.00000
G01 X18.94840 Y10.79500 F30.00000
G01 X18.97380 Y10.79500 F30.00000
G01 X18.97380 Y10.82040 F30.00000
G01 X18.99920 Y10.82040 F30.00000
G01 X18.99920 Y10.84580 F30.00000
G01 X19.02460 Y10.84580 F30.00000
G01 X19.02460 Y10.87120 F30.00000
G01 X19.05000 Y10.87120 F30.00000
G01 X19.05000 Y10.89660 F30.00000
G01 X19.07540 Y10.89660 F30.00000
G01 X19.07540 Y10.92200 F30.00000
G01 X19.10080 Y10.92200 F30.00000
G01 X19.10080 Y10.94740 F30.00000
G01 X19.12620 Y10.94740 F30.00000
G01 X19.12620 Y10.97280 F30.00000
G01 X19.15160 Y10.97280 F30.00000
G01 X19.15160 Y10.99820 F30.00000
G01 X19.17700 Y10.99820 F30.00000
G01 X19.17700 Y11.02360 F30.00000
G01 X19.20240 Y11.02360 F30.00000
G01 X19.20240 Y11.04900 F30.00000
G01 X19.22780 Y11.04900 F30.00000
G01 X19.22780 Y11.07440 F30.00000
G01 X19.25320 Y11.07440 F30.00000
G01 X19.25320 Y11.09980 F30.00000
G01 X19.27860 Y11.09980 F30.00000
G01 X19.27860 Y11.12520 F30.00000
G01 X19.30400 Y11.12520 F30.00000
G01 X19.30400 Y11.15060 F30.00000
G01 X19.32940 Y11.15060 F30.00000
G01 X19.32940 Y11.17600 F30.00000
G01 X19.35480 Y11.17600 F30.00000
G01 X19.35480 Y11.20140 F30.00000
G01 X19.38020 Y11.20140 F30.00000
G01 X19.38020 Y11.22680 F30.00000
G01 X19.40560 Y11.22680 F30.00000
G01 X19.40560 Y11.25220 F30.00000
G01 X19.43100 Y11.25220 F30.00000
G01 X19.43100 Y11.27760 F30.00000
G01 X19.45640 Y11.27760 F30.00000
G01 X19.45640 Y11.30300 F30.00000
G01 X19.48180 Y11.30300 F30.00000
G01 X19.48180 Y11.32840 F30.00000
G01 X19.50720 Y11.32840 F30.00000
G01 X19.50720 Y11.35380 F30.00000
G01 X19.53260 Y11.35380 F30.00000
G01 X19.53260 Y11.37920 F30.00000
G01 X19.55800 Y11.37920 F30.00000
G01 X19.55800 Y11.40460 F30.00000
G01 X19.58340 Y11.40460 F30.00000
G01 X19.58340 Y11.43000 F30.00000
G01 X19.60880 Y11.43000 F30.00000
G01 X19.60880 Y11.45540 F30.00000
G01 X19.63420 Y11.45540 F30.00000
G01 X19.63420 Y11.48080 F30.00000
G01 X19.65960 Y11.48080 F30.00000
G01 X19.65960 Y11.50620 F30.00000
G01 X19.68500 Y11.50620 F30.00000
G01 X19.68500 Y11.53160 F30.00000
G01 X19.71040 Y11.53160 F30.00000
G01 X19.71040 Y11.55700 F30.00000
G01 X19.73580 Y11.55700 F30.00000
G01 X19.73580 Y11.58240 F30.00000
G01 X19.76120 Y11.58240 F30.00000
G01 X19.76120 Y11.60780 F30.00000
G01 X19.78660 Y11.60780 F30.00000
G01 X19.78660 Y11.63320 F30.00000
G01 X19.81200 Y11.63320 F30.00000
G01 X19.81200 Y11.65860 F30.00000
G01 X19.83740 Y11.65860 F30.00000
G01 X19.83740 Y11.68400 F30.00000
G01 X19.86280 Y11.68400 F30.00000
G01 X19.86280 Y11.70940 F30.00000
G01 X19.88820 Y11.70940 F30.00000
G01 X19.88820 Y11.73480 F30.00000
G01 X19.91360 Y11.73480 F30.00000
G01 X19.91360 Y11.76020 F30.00000
G01 X19.93900 Y11.76020 F30.00000
G01 X19.93900 Y11.78560 F30.00000
G01 X19.96440 Y11.78560 F30.00000
G01 X19.96440 Y11.81100 F30.00000
G01 X19.98980 Y11.81100 F30.00000
G01 X19.98980 Y11.83640 F30.00000
G01 X20.01520 Y11.83640 F30.00000
G01 X20.01520 Y11.86180 F30.00000
G01 X20.04060 Y11.86180 F30.00000
G01 X20.04060 Y11.88720 F30.00000
G01 X20.06600 Y11.88720 F30.00000
G01 X20.06600 Y11.91260 F30.00000
G01 X20.09140 Y11.91260 F30.00000
G01 X20.09140 Y11.93800 F30.00000
G01 X20.11680 Y11.93800 F30.00000
G01 X20.11680 Y11.96340 F30.00000
G01 X20.14220 Y11.96340 F30.00000
G01 X20.14220 Y11.98880 F30.00000
G01 X20.16760 Y11.98880 F30.00000
G01 X20.16760 Y12.01420 F30.00000
G01 X20.19300 Y12.01420 F30.00000
G01 X20.19300 Y12.03960 F30.00000
G01 X20.21840 Y12.03960 F30.00000
G01 X20.21840 Y12.06500 F30.00000
G01 X20.24380 Y12.06500 F30.00000
G01 X20.24380 Y12.09040 F30.00000
G01 X20.26920 Y12.09040 F30.00000
G01 X20.26920 Y12.11580 F30.00000
G01 X20.29460 Y12.11580 F30.00000
G01 X20.29460 Y12.14120 F30.00000
G01 X20.32000 Y12.14120 F30.00000
G01 X20.32000 Y12.16660 F30.00000
G01 X20.34540 Y12.16660 F30.00000
G01 X20.34540 Y12.19200 F30.00000
G01 X20.37080 Y12.19200 F30.00000
G01 X20.37080 Y12.21740 F30.00000
G01 X20.39620 Y12.21740 F30.00000
G01 X20.39620 Y12.24280 F30.00000
G01 X20.42160 Y12.24280 F30.00000
G01 X20.42160 Y12.26820 F30.00000
G01 X20.44700 Y12.26820 F30.00000
G01 X20.44700 Y12.29360 F30.00000
G01 X20.47240 Y12.29360 F30.00000
G01 X20.47240 Y12.31900 F30.00000
G01 X20.49780 Y12.31900 F30.00000
G01 X20.49780 Y12.34440 F30.00000
G01 X20.52320 Y12.34440 F30.00000
G01 X20.52320 Y12.36980 F30.00000
G01 X20.54860 Y12.36980 F30.00000
G01 X20.54860 Y12.39520 F30.00000
G01 X20.57400 Y12.39520 F30.00000
G01 X20.57400 Y12.42060 F30.00000
G01 X20.59940 Y12.42060 F30.00000
G01 X20.59940 Y12.44600 F30.00000
G01 X20.62480 Y12.44600 F30.00000
G01 X20.62480 Y12.47140 F30.00000
G01 X20.65020 Y12.47140 F30.00000
G01 X20.65020 Y12.49680 F30.00000
G01 X20.67560 Y12.49680 F30.00000
G01 X20.67560 Y12.52220 F30.00000
G01 X25.93340 Y12.52220 F30.00000
G01 X25.93340 Y8.81380 F30.00000

G04 P0 ( dwell for no time -- G64 should not smooth over this point )
G00 Z15.00000 ( retract )

M9 ( Coolant off. )
M2 ( Program end. )

